!!!!SEGMENT: pl-cz--iii-37--001-003_bogoimski-tadeusz--aria-rondo.krn
!!!cenid: 18xx:681
!!!COM: Bogoimski, Tadeusz
!!!COM-rism: pe30024244
!!!CDT: ~1800-~1899
!!!CNT:
!!!OTL: Aria – Rondo
!!!PDT: 1839
!!!AGN:
!!!SMS-siglum: PL-CZ
!!!SMS-shelfmark: III-37
!!!NIFC-rismID: 300237592
!!!URL-scan: http://repozytorium.nifc.pl/skany/pl-cz-nut--iii-37
!!!ONB-nifc: UWAGA: części Arii: Nolite confidere, Regnabit Dominus, Rondo
!!!SMS-variant:
!!!SMS-altvar:
**kern	**dynam	**kern	**dynam	**kern	**dynam	**kern	**dynam	**kern	**dynam	**kern	**text	**kern	**kern	**dynam	**kern	**kern	**dynam	**kern	**dynam
*part11	*part11	*part10	*part10	*part9	*part9	*part8	*part8	*part7	*part7	*part6	*part6	*part5	*part4	*part4	*part3	*part2	*part2	*part1	*part1
*staff11	*	*staff10	*	*staff9	*	*staff8	*	*staff7	*	*staff6	*staff6	*staff5	*staff4	*	*staff3	*staff2	*	*staff1	*
*I"Organo.	*	*I"Baſso.	*	*I"Alto Viola.	*	*I"Violino IIdo	*	*I"Violino Imo	*	*I"Baſs. Solo.	*	*I"Corno 2do	*I"Corno 1mo	*	*I"Clarinetto 2do in A.	*I"Clarinetto 1mo in A.	*	*I"Flauto	*
*I'org	*	*I'b	*	*I'vla	*	*I'vl 2	*	*I'vl 1	*	*I'B solo	*	*I'cor 2	*I'cor 1	*	*I'cl 2	*I'cl 1	*	*I'fl	*
*clefF4	*	*clefF4	*	*clefC3	*	*clefG2	*	*clefG2	*	*clefF4	*	*clefG2	*clefG2	*	*clefG2	*clefG2	*	*clefG2	*
*	*	*	*	*	*	*	*	*	*	*	*	*ITrd2c3	*ITrd2c3	*	*ITrd2c3	*ITrd2c3	*	*	*
*k[f#c#g#]	*	*k[f#c#g#]	*	*k[f#c#g#]	*	*k[f#c#g#]	*	*k[f#c#g#]	*	*k[f#c#g#]	*	*k[f#c#g#]	*k[f#c#g#]	*	*k[f#c#g#]	*k[f#c#g#]	*	*k[f#c#g#]	*
*M2/4	*	*M2/4	*	*M2/4	*	*M2/4	*	*M2/4	*	*M2/4	*	*M2/4	*M2/4	*	*M2/4	*M2/4	*	*M2/4	*
=1	=1	=1	=1	=1	=1	=1	=1	=1	=1	=1!|:	=1	=1	=1	=1	=1	=1	=1	=1	=1
*^	*	*	*	*	*	*	*	*^	*	*	*	*	*	*	*	*	*	*	*
*	*	*	*	*	*	*	*	*	*cue	*	*	*	*	*	*	*	*	*	*	*	*
!	!LO:TX:a:t=P:problem:tytuł części na pięciolinii przed kluczem	!	!LO:TX:a:t=P:problem:tytuł części na pięciolinii przed kluczem	!	!LO:TX:a:t=P:problem:tytuł części na pięciolinii przed kluczem	!	!LO:TX:a:t=P:problem:tytuł części na pięciolinii przed kluczem	!	!LO:TX:a:t=P:problem:tytuł części na pięciolinii przed kluczem	!	!	!LO:TX:a:t=8.	!	!	!LO:TX:a:t=P:problem:tytuł części pomiędzy pięcioliniami,  za końcową kreską taktową poprzedniej części	!	!LO:TX:a:t=P:problem:tytuł części na pięciolinii przed kluczem	!LO:TX:a:t=P:problem:tytuł części na pięciolinii przed kluczem	!	!LO:TX:a:t=P:problem:tytuł części na pięciolinii przed kluczem	!
!	!LO:TX:a:i:t=Rondo	!	!LO:TX:a:t=1	!	!LO:TX:a:t=1.	!	!LO:TX:a:t=1.	!	!LO:TX:a:t=P:problem: g# przy kluczu oznaczony na drugiej linii	!	!	!LO:TX:a:i:t=Rondo.	!	!LO:TX:a:t=1.	!LO:TX:a:t=1.	!	!LO:TX:a:t=1	!	!	!LO:TX:a:i:t=Rondo.	!
!	!	!	!LO:TX:a:i:t=Rondo.	!	!LO:TX:a:i:t=Rondo.	!	!LO:TX:a:i:t=Rondo	!	!LO:TX:a:i:t=Rondo	!	!	!LO:TX:a:t=P:problem:tytuł części nad pięciolinią, powyżej znaków przykluczowych i metrum	!	!	!LO:TX:a:i:t=Rondo	!	!LO:TX:a:i:t=Rodno.	!LO:TX:a:i:t=Rondo	!	!	!
!	!	!	!	!	!	!	!	!	!	!	!	!LO:N:vis=00	!	!LO:TX:a:t=P:problem:w źródle wspólna nazwa dla obu głosów "Corno 1mo et 2do A."	!LO:TX:a:t=P:problem:w źródle wspólna nazwa dla obu głosów "Corno 1mo et 2do A."	!	!	!	!	!	!
*cue	*	*	*	*	*	*	*	*	*	*	*	*	*	*	*	*	*	*	*	*	*
8r	2r	.	2r	.	2r	.	2r	.	8.r	2r	.	0r	.	2r	2r	.	2r	8.r	.	8.r	.
8E/L	.	.	.	.	.	.	.	.	.	.	.	.	.	.	.	.	.	.	.	.	.
.	.	.	.	.	.	.	.	.	16ee/KL	.	.	.	.	.	.	.	.	16e\KL	.	16ee\KL	.
8A/	.	.	.	.	.	.	.	.	8.aa/	.	.	.	.	.	.	.	.	8.a\	.	8.aa\	.
8B/J	.	.	.	.	.	.	.	.	.	.	.	.	.	.	.	.	.	.	.	.	.
*Xcue	*	*	*	*	*	*	*	*	*	*	*	*	*	*	*	*	*	*	*	*	*
.	.	.	.	.	.	.	.	.	16bb/Jk	.	.	.	.	.	.	.	.	16b\Jk	.	16bb\Jk	.
*	*	*	*	*	*	*	*	*	*Xcue	*	*	*	*	*	*	*	*	*	*	*	*
*v	*v	*	*	*	*	*	*	*	*v	*v	*	*	*	*	*	*	*	*	*	*	*
=2	=2	=2	=2	=2	=2	=2	=2	=2	=2	=2	=2	=2	=2	=2	=2	=2	=2	=2	=2
*	*below	*	*below	*	*below	*	*below	*	*below	*	*	*	*	*	*	*	*	*	*
!	!LO:DY:b:t=p&colon;	!	!	!	!	!	!	!	!LO:DY:b:i:t=p&colon;	!	!	!	!	!	!	!	!	!	!
!	!LO:DY:rj	!	!	!	!	!	!	!	!LO:DY:rj	!	!	!	!	!	!	!	!	!	!
4A\	p	4A\	p	4r	p	4r	.	4r	p	.	.	4c#/	4a\	.	8A/L	4cc#\	.	4ccc#\	.
.	.	.	.	.	.	.	.	.	.	.	.	.	.	.	8e/	.	.	.	.
4r	.	4r	.	4c#\ 4e	.	4A/	.	4c#/ 4e	.	.	.	4a/	4cc#\	.	8c#/	4ee\	.	4eee\	.
.	.	.	.	.	.	.	.	.	.	.	.	.	.	.	8e/J	.	.	.	.
=3	=3	=3	=3	=3	=3	=3	=3	=3	=3	=3	=3	=3	=3	=3	=3	=3	=3	=3	=3
4E\	.	4E\	.	4r	.	4r	.	4r	.	.	.	4E/	4e\	.	8E/L	8.ee\L	.	8.eee\L	.
.	.	.	.	.	.	.	.	.	.	.	.	.	.	.	8e/	.	.	.	.
.	.	.	.	.	.	.	.	.	.	.	.	.	.	.	.	16dd\Jk	.	16ddd\Jk	.
4r	.	4r	.	4B\ 4d	.	4B/ 4e	.	4d/ 4e	.	.	.	4e/	4b\	.	8d/	8.b\L	.	8.bb\L	.
.	.	.	.	.	.	.	.	.	.	.	.	.	.	.	8e/J	.	.	.	.
.	.	.	.	.	.	.	.	.	.	.	.	.	.	.	.	16cc#\Jk	.	16ccc#\Jk	.
=4	=4	=4	=4	=4	=4	=4	=4	=4	=4	=4	=4	=4	=4	=4	=4	=4	=4	=4	=4
8AA/	.	8AA/	.	4r	.	4r	.	4r	.	.	.	4c#/	4a\	.	8A/L	8.a\L	.	8.aa\L	.
8r	.	8r	.	.	.	.	.	.	.	.	.	.	.	.	8e/	.	.	.	.
.	.	.	.	.	.	.	.	.	.	.	.	.	.	.	.	16cc#\Jk	.	16ccc#\Jk	.
8A\	.	8A\	.	4c#\ 4e	.	4c#/ 4e	.	4c#/ 4e	.	.	.	4a/	4cc#\	.	8c#/	4e/	.	4ee\	.
8r	.	8r	.	.	.	.	.	.	.	.	.	.	.	.	8e/J	.	.	.	.
!	!	!	!	!	!	!	!	!	!	!	!	!	!	!	!	!LO:LB:g=original	!	!	!
=5	=5	=5	=5	=5	=5	=5	=5	=5	=5	=5	=5	=5	=5	=5	=5	=5	=5	=5	=5
!	!	!	!	!	!	!	!	!	!	!LO:N:vis=00	!	!	!	!	!	!	!	!	!
4AA/	.	4AA/	.	4r	.	4r	.	4r	.	0r	.	4c#/	4a\	.	4A/ 4c#	8.r	.	8.r	.
.	.	.	.	.	.	.	.	.	.	.	.	.	.	.	.	16e\KL	.	(>16ee\KL	.
4r	.	4r	.	4A/	.	4A/	.	4c#/ 4e	.	.	.	4r	4r	.	4r	8.a\	.	8.aa\	.
.	.	.	.	.	.	.	.	.	.	.	.	.	.	.	.	16b\Jk	.	16bb\Jk)	.
!LO:LB:g=original	!	!	!	!LO:LB:g=original	!	!	!	!	!	!	!	!	!	!	!	!	!	!LO:LB:g=original	!
=6	=6	=6	=6	=6	=6	=6	=6	=6	=6	=6	=6	=6	=6	=6	=6	=6	=6	=6	=6
!	!	!	!	!	!	!	!	!	!	!	!	!LO:TX:a:t=2.	!LO:TX:a:t=2.	!	!	!	!	!	!
!	!	!	!	!	!	!	!	!	!	!	!	!LO:N:vis=0	!LO:N:vis=0	!	!	!	!	!	!
4A\	<	4A\	.	4r	.	4r	.	4r	.	.	.	1r	1r	.	4e/	4cc#\	.	4ccc#\	f
4G#\	.	4G#\	.	4c#\ 4e	.	4c#/ 4e	.	4e/ 4cc#	.	.	.	.	.	.	4e/	4cc#\	.	4ccc#\	.
!	!	!LO:LB:g=original	!	!	!	!LO:LB:g=original	!	!LO:LB:g=original	!	!	!	!	!	!	!LO:LB:g=original	!	!	!	!
=7	=7	=7	=7	=7	=7	=7	=7	=7	=7	=7	=7	=7	=7	=7	=7	=7	=7	=7	=7
!	!	!	!	!	!LO:DY:b:i:t=fo	!	!	!	!	!	!	!	!	!	!	!	!LO:DY:rj	!	!
4G#\	.	4G#\	<	4f#\	f	4d#X/	f	4g#/ 4b#X	f	.	.	.	.	.	4d#X/	4b#X\	f	4bb#X\	.
4C#/	.	4C#/	.	4e\	.	4c#/ 4e	.	4e/ 4cc#	.	.	.	.	.	.	4e/	4cc#\	.	4ccc#\	.
=8	=8	=8	=8	=8	=8	=8	=8	=8	=8	=8	=8	=8	=8	=8	=8	=8	=8	=8	=8
4E\	.	4E\	.	4B\ 4d	.	4g#\ 4b	.	4e/ 4dd	.	.	.	4e/	4b\	.	4b\	4dd\	.	4ddd\	.
4r	.	4r	.	4r	.	4r	.	4r	.	.	.	4r	4r	.	4r	4r	.	4r	.
=9	=9	=9	=9	=9	=9	=9	=9	=9	=9	=9	=9	=9	=9	=9	=9	=9	=9	=9	=9
!LO:TX:a:t=1.	!	!	!	!	!	!	!	!	!	!	!	!LO:TX:a:t=4.	!LO:TX:a:t=4	!	!LO:TX:b:t=9.	!	!	!LO:TX:a:t=13	!
!	!	!	!	!	!	!	!	!	!	!	!	!LO:N:vis=00	!LO:N:vis=00	!	!LO:N:vis=00	!LO:N:vis=00	!	!LO:N:vis=00	!
2r	.	2r	.	2r	.	2r	.	2r	.	8.r	.	0r	0r	.	0r	0r	.	0r	.
.	.	.	.	.	.	.	.	.	.	16E\	Lau-	.	.	.	.	.	.	.	.
.	.	.	.	.	.	.	.	.	.	8.A\	-da-	.	.	.	.	.	.	.	.
.	.	.	.	.	.	.	.	.	.	16B\	-bo	.	.	.	.	.	.	.	.
=10	=10	=10	=10	=10	=10	=10	=10	=10	=10	=10	=10	=10	=10	=10	=10	=10	=10	=10	=10
4A\	p	4A\	p	4r	.	4r	p	4r	p	4c#\	Lau-	.	.	.	.	.	.	.	.
4r	.	4r	.	4c#\ 4e	.	4c#/ 4e	.	4e/ 4cc#	.	4e\	.	.	.	.	.	.	.	.	.
=11	=11	=11	=11	=11	=11	=11	=11	=11	=11	=11	=11	=11	=11	=11	=11	=11	=11	=11	=11
4E\	.	4E\	.	4r	.	4r	.	4r	.	(>8.e\L	-da-	.	.	.	.	.	.	.	.
.	.	.	.	.	.	.	.	.	.	16d\Jk)	.	.	.	.	.	.	.	.	.
4r	.	4r	.	4d\ 4e	.	4B/ 4d	.	4d/ 4b	.	8.B\L	-bo	.	.	.	.	.	.	.	.
.	.	.	.	.	.	.	.	.	.	16c#\Jk	.	.	.	.	.	.	.	.	.
=12	=12	=12	=12	=12	=12	=12	=12	=12	=12	=12	=12	=12	=12	=12	=12	=12	=12	=12	=12
4AA/	.	4AA/	.	4r	.	4r	.	4r	.	(>8A\	De-	.	.	.	.	.	.	.	.
.	.	.	.	.	.	.	.	.	.	8c#\)	.	.	.	.	.	.	.	.	.
4r	.	4r	.	4c#\ 4e	.	4A/	.	4c#/ 4e	.	4E\	-um	.	.	.	.	.	.	.	.
!	!	!	!	!	!	!	!	!	!	!LO:LB:g=original	!	!LO:LB:g=original	!LO:LB:g=original	!	!	!	!	!	!
=13	=13	=13	=13	=13	=13	=13	=13	=13	=13	=13	=13	=13	=13	=13	=13	=13	=13	=13	=13
!	!	!	!	!	!	!	!	!	!	!	!	!LO:TX:a:t=1.	!LO:TX:a:t=1	!	!LO:N:vis=00	!LO:N:vis=00	!	!LO:N:vis=00	!
4A\	.	4A\	.	4r	.	4r	.	4r	.	8.r	.	2r	2r	.	0r	0r	.	0r	.
.	.	.	.	.	.	.	.	.	.	16E\	me-	.	.	.	.	.	.	.	.
4r	.	4r	.	4A/	.	4c#/ 4e	.	4c#/ 4e	.	8.A\	-um	.	.	.	.	.	.	.	.
.	.	.	.	.	.	.	.	.	.	16B\	in	.	.	.	.	.	.	.	.
=14	=14	=14	=14	=14	=14	=14	=14	=14	=14	=14	=14	=14	=14	=14	=14	=14	=14	=14	=14
4A\	.	4A\	.	4r	.	4A/	.	4a/	f	4c#\	vi-	4A/	4a\	.	.	.	.	.	.
!	!	!	!	!	!	!	!LO:DY:rj	!	!	!	!	!	!	!	!	!	!	!	!
4G#\	<	4G#\	.	4c#\ 4e	f	4c#/ 4e	f	4e/ 4cc#	.	4c#\	-ta	4c#/	4cc#\	.	.	.	.	.	.
=15	=15	=15	=15	=15	=15	=15	=15	=15	=15	=15	=15	=15	=15	=15	=15	=15	=15	=15	=15
4G#\	.	4G#\	.	4f#\	.	4d#X/	.	4g#/ 4b#X	.	(>4B#X\	me-	4c#/	4cc#\	.	.	.	.	.	.
4C#/	.	4C#/	.	4e\	.	4c#/ 4e	.	4e/ 4cc#	.	4c#\)	.	4c#/	4cc#\	.	.	.	.	.	.
!	!	!	!	!LO:LB:g=original	!	!	!	!	!	!	!	!	!	!	!	!	!	!	!
=16	=16	=16	=16	=16	=16	=16	=16	=16	=16	=16	=16	=16	=16	=16	=16	=16	=16	=16	=16
4E\	.	4E\	.	4B\ 4d	.	4g#/ 4b	.	4e/ 4dd	.	4d\	-a	4e/	4b\	.	.	.	.	.	.
4r	.	4r	.	4r	.	4r	.	4r	.	4r	.	4r	4r	.	.	.	.	.	.
!LO:LB:g=original	!	!	!	!	!	!LO:LB:g=original	!	!LO:LB:g=original	!	!	!	!	!	!	!	!	!	!	!
=17	=17	=17	=17	=17	=17	=17	=17	=17	=17	=17	=17	=17	=17	=17	=17	=17	=17	=17	=17
!	!	!	!	!	!	!	!	!LO:TX:a:t=1.	!	!	!	!LO:TX:a:t=5	!LO:TX:a:t=5	!	!	!	!	!	!
!	!	!	!	!	!	!	!	!	!	!	!	!LO:N:vis=00	!LO:N:vis=00	!	!	!	!	!LO:N:vis=00	!
2r	.	2r	.	2r	.	2r	.	2r	.	8.r	.	0r	0r	.	2r	2r	.	0r	.
.	.	.	.	.	.	.	.	.	.	16E\	Lau-	.	.	.	.	.	.	.	.
.	.	.	.	.	.	.	.	.	.	8.A\	-da-	.	.	.	.	.	.	.	.
.	.	.	.	.	.	.	.	.	.	16B\	-bo	.	.	.	.	.	.	.	.
!	!	!LO:LB:g=original	!	!	!	!	!	!	!	!	!	!	!	!	!	!	!	!	!
=18	=18	=18	=18	=18	=18	=18	=18	=18	=18	=18	=18	=18	=18	=18	=18	=18	=18	=18	=18
4A\	.	4A\	.	4r	.	4r	p	4r	.	(>4c#\	Lau-	.	.	.	4r	4r	.	.	.
!	!	!	!	!	!	!	!	!	!LO:DY:b:i:t=p&colon;	!	!	!	!	!	!	!	!	!	!
!	!	!	!	!	!	!	!	!	!LO:DY:rj	!	!	!	!	!	!	!	!	!	!
4r	.	4r	.	4c#\ 4e	.	4c#/ 4e	.	4e/ 4cc#	p	4e\)	.	.	.	.	4a\	4cc#\	p	.	.
!	!	!	!	!	!	!	!	!	!	!LO:LB:g=original	!	!	!	!	!	!	!	!	!
=19	=19	=19	=19	=19	=19	=19	=19	=19	=19	=19	=19	=19	=19	=19	=19	=19	=19	=19	=19
4E\	.	4E\	.	4r	.	4r	.	4r	.	8.e\L	-da-	.	.	.	4r	4r	.	.	.
.	.	.	.	.	.	.	.	.	.	16d\Jk	.	.	.	.	.	.	.	.	.
4r	.	4r	.	4d\ 4e	.	4B/ 4d	.	4d/ 4b	.	8.B\L	-bo	.	.	.	4e/	4b\	.	.	.
.	.	.	.	.	.	.	.	.	.	16c#\Jk	.	.	.	.	.	.	.	.	.
=20	=20	=20	=20	=20	=20	=20	=20	=20	=20	=20	=20	=20	=20	=20	=20	=20	=20	=20	=20
4AA/	.	4AA/	.	4r	.	4r	.	4r	.	(>8A\	De-	.	.	.	4r	4r	.	.	.
.	.	.	.	.	.	.	.	.	.	8c#\)	.	.	.	.	.	.	.	.	.
4r	.	4r	.	4c#\ 4e	.	4A/	.	4c#/ 4e	.	4E\	-um	.	.	.	4E/	4e/	.	.	.
=21	=21	=21	=21	=21	=21	=21	=21	=21	=21	=21	=21	=21	=21	=21	=21	=21	=21	=21	=21
4A\	.	4A\	.	4r	.	4r	.	4r	.	8.r	.	2r	2r	.	2r	2r	.	2r	.
.	.	.	.	.	.	.	.	.	.	16E\	me-	.	.	.	.	.	.	.	.
4r	.	4r	.	4A/	.	4c#/ 4e	.	4c#/ 4e	.	8.A\	-um	.	.	.	.	.	.	.	.
.	.	.	.	.	.	.	.	.	.	16B\	in	.	.	.	.	.	.	.	.
!	!	!	!	!	!	!	!	!	!	!	!	!	!	!	!	!LO:LB:g=original	!	!	!
=22	=22	=22	=22	=22	=22	=22	=22	=22	=22	=22	=22	=22	=22	=22	=22	=22	=22	=22	=22
!	!	!	!	!	!	!	!LO:DY:rj	!	!	!	!	!	!	!	!	!	!	!	!
4A\	.	4A\	.	4A/	.	4A/	f	4a/	.	4c#\	vi-	4A/	4a\	.	4e/	4cc#\	.	4r	.
!	!	!	!	!	!	!	!	!	!LO:DY:b:i:t=fo&colon;	!	!	!	!	!	!	!	!	!	!
!	!	!	!	!	!	!	!	!	!LO:DY:rj	!	!	!	!	!	!	!	!	!	!
4G#\	<	4G#\	.	4c#\ 4e	f	4c#/ 4e	.	4e/ 4cc#	f	4c#\	-ta	4c#/	4cc#\	.	4e/	4cc#\	.	4ccc#\	.
=23	=23	=23	=23	=23	=23	=23	=23	=23	=23	=23	=23	=23	=23	=23	=23	=23	=23	=23	=23
4G#\	.	4G#\	.	4f#\	.	4d#X/	.	4g#/ 4b#X	.	(>4B#X\	me-	4c#/	4cc#\	.	4d#X/	4b#X\	.	4bb#X\	.
4C#\	.	4C#/	.	4e\	.	4c#/ 4e	.	4e/ 4cc#	.	4c#\)	.	4c#/	4cc#\	.	4e/	4cc#\	.	4ccc#\	.
!	!	!	!	!	!	!	!	!	!	!	!	!	!	!	!LO:LB:g=original	!	!	!	!
=24	=24	=24	=24	=24	=24	=24	=24	=24	=24	=24	=24	=24	=24	=24	=24	=24	=24	=24	=24
4E\	.	4E\	.	4B\ 4d	.	4g#/ 4b	.	4e/ 4dd	.	4d\	-a	4e/	4b\	.	4b\	4dd\	.	4ddd\	.
4r;>	.	4r;>	.	4r;>	.	4r;>	.	4r;>	.	4r;>	.	4r;>	4r;>	.	4r;>	4r;>	.	4r;>	.
!	!	!	!	!	!	!	!	!	!	!LO:LB:g=original	!	!	!	!	!	!	!	!	!
=25	=25	=25	=25	=25	=25	=25	=25	=25	=25	=25	=25	=25	=25	=25	=25	=25	=25	=25	=25
!	!	!	!	!	!	!	!	!	!LO:DY:rj	!	!	!	!	!	!LO:TX:a:t=4.	!LO:TX:a:t=4.	!	!LO:TX:a:t=5.	!
!	!	!	!	!	!	!	!	!	!	!	!	!	!	!	!LO:N:vis=00	!LO:N:vis=00	!	!LO:N:vis=00	!
4E\	.	4E\	.	4r	.	4r	.	4r	p	8r	.	4e/	4b\	.	0r	0r	.	0r	.
.	.	.	.	.	.	.	.	.	.	8d\	Re-	.	.	.	.	.	.	.	.
!	!	!	!	!	!	!	!LO:DY:rj	!	!	!	!	!	!	!	!	!	!	!	!
4r	.	4r	.	4E/ 4B	.	4d/ 4e	p	4e/ 4b	.	8c#\	-gna-	4r	4r	.	.	.	.	.	.
.	.	.	.	.	.	.	.	.	.	8B\	-bit	.	.	.	.	.	.	.	.
!	!	!	!	!LO:LB:g=original	!	!	!	!	!	!	!	!	!	!	!	!	!	!	!
=26	=26	=26	=26	=26	=26	=26	=26	=26	=26	=26	=26	=26	=26	=26	=26	=26	=26	=26	=26
!	!	!	!	!	!	!	!	!	!	!LO:TX:a:t=|:problem	!	!	!	!	!	!	!	!	!
4A\	.	4A\	.	4r	.	4r	.	4r	.	8c#\L	Do-	4a\	4cc#\	.	.	.	.	.	.
!	!	!	!	!	!	!	!	!	!	!LO:TX:a:t=|:problem	!	!	!	!	!	!	!	!	!
.	.	.	.	.	.	.	.	.	.	8d\J	-mi-	.	.	.	.	.	.	.	.
4r	.	4r	.	4c#\ 4e	.	4c#/ 4e	.	4a\ 4cc#	.	4e\	-nus	4r	4r	.	.	.	.	.	.
!LO:LB:g=original	!	!	!	!	!	!LO:LB:g=original	!	!LO:LB:g=original	!	!	!	!LO:LB:g=original	!LO:LB:g=original	!	!	!	!	!	!
=27	=27	=27	=27	=27	=27	=27	=27	=27	=27	=27	=27	=27	=27	=27	=27	=27	=27	=27	=27
4E\	.	4E\	.	4r	.	4r	.	4r	.	8r	.	4e/	4b\	.	.	.	.	.	.
*	*	*	*	*	*	*	*	*	*	*	*ij	*	*	*	*	*	*	*	*
.	.	.	.	.	.	.	.	.	.	8d\	Re-	.	.	.	.	.	.	.	.
4r	.	4r	.	4E/ 4B	.	4d/ 4e	.	4e/ 4b	.	8c#\	-gna-	4e/	4b\	.	.	.	.	.	.
.	.	.	.	.	.	.	.	.	.	8B\	-bit	.	.	.	.	.	.	.	.
!	!	!LO:LB:g=original	!	!	!	!	!	!	!	!	!	!	!	!	!	!	!	!	!
=28	=28	=28	=28	=28	=28	=28	=28	=28	=28	=28	=28	=28	=28	=28	=28	=28	=28	=28	=28
4AA/	.	4AA/	.	4r	.	4r	.	4r	.	8c#\L	Do-	4A/	4a\	.	.	.	.	.	.
.	.	.	.	.	.	.	.	.	.	8B\J	-mi-	.	.	.	.	.	.	.	.
4r	.	4r	.	4A/	.	4c#/ 4e	.	4c#/ 4e	.	4A\	-nus	4r	4r	.	.	.	.	.	.
*	*	*	*	*	*	*	*	*	*	*	*Xij	*	*	*	*	*	*	*	*
=29	=29	=29	=29	=29	=29	=29	=29	=29	=29	=29	=29	=29	=29	=29	=29	=29	=29	=29	=29
!	!	!	!	!	!	!	!	!	!	!	!	!	!	!	!	!	!	!LO:N:vis=0	!
4E\	.	4E\	.	4r	.	4r	.	4r	.	8r	.	4E/	4b\	.	8e\L	8e\L	.	2r	.
.	.	.	.	.	.	.	.	.	.	8d\	in	.	.	.	8b\	8dd\	.	.	.
4r	.	4r	.	4E/ 4B	.	4d/ 4e	.	4e/ 4b	.	(>8c#\	sae-	4e/	4b\	.	8a\	8cc#\	.	.	.
.	.	.	.	.	.	.	.	.	.	8B\)	.	.	.	.	8e\J	8b\J	.	.	.
=30	=30	=30	=30	=30	=30	=30	=30	=30	=30	=30	=30	=30	=30	=30	=30	=30	=30	=30	=30
4AA/	.	4AA/	.	4A/	.	4r	.	4a/	.	4c#\	-cu-	4A/	4a\	.	4a\	4cc#\	.	4ccc#\	.
!	!	!	!	!	!LO:DY:b:i:t=for	!	!	!	!	!	!	!	!	!	!	!	!	!	!
8D#;>/	.	8D#;>/	.	4d#X;>\ 4f#	f	4d#X;>/ 4f#	.	4cn;>/ 4f#	f	4f#;>\	-la	4A;/	4a;\	.	4a;>\	4ff#;>^<\	.	4fff#;>\	.
8r	.	8r	.	.	.	.	.	.	.	.	.	.	.	.	.	.	.	.	.
!	!	!	!	!	!	!	!	!	!	!LO:LB:g=original	!	!	!	!	!	!	!	!LO:LB:g=original	!
=31	=31	=31	=31	=31	=31	=31	=31	=31	=31	=31	=31	=31	=31	=31	=31	=31	=31	=31	=31
!	!	!	!	!	!	!	!	!	!	!	!	!	!	!	!	!	!	!LO:TX:a:t=3.	!
!	!	!	!	!	!	!	!	!	!	!	!	!	!	!	!	!	!	!LO:N:vis=0	!
4E\	.	4E\	.	8c#\L	.	8r	.	8r	.	4e\	De-	4e/	4e/	.	4a\	4cc#\	p	1r	.
*	*	*	*	*	*	*tremolo	*	*	*	*	*	*	*	*	*	*	*	*	*
.	.	.	.	8e\	.	8c#/L 8e	.	8c#/L 8e	.	.	.	.	.	.	.	.	.	.	.
4r	.	4r	.	8d\	.	8c#/ 8e	.	8c#/ 8e	.	8c#\L	-us	4r	4r	.	4r	4r	.	.	.
.	.	.	.	8c#\J	.	8c#/J 8e	.	8c#/J 8e	.	8A\J	.	.	.	.	.	.	.	.	.
=32	=32	=32	=32	=32	=32	=32	=32	=32	=32	=32	=32	=32	=32	=32	=32	=32	=32	=32	=32
4E\	.	4E\	.	4B\	.	8r	.	8r	.	4E\	tu-	4e/	4b\	.	4e/	4b\	.	.	.
.	.	.	.	.	.	8d/L 8e	.	8B/L 8g#	.	.	.	.	.	.	.	.	.	.	.
4r	.	4r	.	4e\	.	8d/ 8e	.	8B/ 8g#	.	8F#\L	.	4r	4r	.	4r	4r	.	.	.
.	.	.	.	.	.	8d/J 8e	.	8B/J 8g#	.	8G#\J	.	.	.	.	.	.	.	.	.
*	*	*	*	*	*	*Xtremolo	*	*	*	*	*	*	*	*	*	*	*	*	*
!	!	!	!	!	!	!	!	!	!	!	!	!	!	!	!	!LO:LB:g=original	!	!	!
=33	=33	=33	=33	=33	=33	=33	=33	=33	=33	=33	=33	=33	=33	=33	=33	=33	=33	=33	=33
4AA/	.	4AA/	.	4A/	.	4c#/ 4e	.	4A/ 4a	.	4A\	-us	4A/	4a\	.	4c#/	4a\	.	2r	.
4r	.	4r	.	4r	.	4r	.	4r	.	4r	.	4r	4r	.	4r	4r	.	.	.
=34	=34	=34	=34	=34	=34	=34	=34	=34	=34	=34	=34	=34	=34	=34	=34	=34	=34	=34	=34
*	*	*	*	*	*	*	*	*	*	*	*	*	*	*	*	*	*	*2\right	*
!	!	!	!	!	!	!	!	!	!	!LO:N:vis=00	!	!	!	!	!	!	!	!	!
!	!	!	!	!	!	!	!	!	!	!LO:TX:a:t=8:problem: niejednoznaczne oznaczenie pauzy wielotaktowej	!	!	!	!	!	!	!	!	!
!	!	!	!	!	!	!	!	!	!	!LO:TX:a:t=P:problem:fermata i inne niejasne dopiski inną ręką wewnątrz taktu (jakby ołówkiem)	!	!	!	!	!	!	!	!	!LO:DY:b:i:t=fo
4G#\	.	4G#\	.	4r	.	4r	.	4r	.	0r	.	4E/	4e\	.	8e\L	(>8e\L	.	2eeT>\	f
.	.	.	.	.	.	.	.	.	.	.	.	.	.	.	8b\	8dd\	.	.	.
!	!	!	!	!	!	!	!	!	!	!	!	!	!	!	!	!LO:TX:b:i:t=expres&colon;	!	!	!
4E\	<	4E\	.	4d\ 4e	.	4d/ 4e	.	4e/ 4b	.	.	.	4e/	4b\	.	8a\	8cc#\)	.	.	.
.	.	.	.	.	.	.	.	.	.	.	.	.	.	.	8e\J	8b\J	.	.	.
!	!	!	!	!LO:LB:g=original	!	!	!	!	!	!	!	!	!	!	!	!	!	!	!
=35	=35	=35	=35	=35	=35	=35	=35	=35	=35	=35	=35	=35	=35	=35	=35	=35	=35	=35	=35
4A\	.	4A\	.	4r	.	4A/	.	4a/	.	.	.	4A/	4a\	.	8a\L	8cc#\L	.	2eeT>\	.
.	.	.	.	.	.	.	.	.	.	.	.	.	.	.	8b\J	8dd\J	.	.	.
4E\	.	4E\	.	4c#\ 4e	.	4c#/ 4e	.	4a/ 4cc#	.	.	.	4a\	4cc#\	.	4cc#\	4ee\	.	.	.
!LO:LB:g=original	!	!	!	!	!	!LO:LB:g=original	!	!LO:LB:g=original	!	!	!	!LO:PB:g=original	!LO:PB:g=original	!	!LO:LB:g=original	!	!	!	!
=36	=36	=36	=36	=36	=36	=36	=36	=36	=36	=36	=36	=36	=36	=36	=36	=36	=36	=36	=36
4G#\	.	4G#\	.	4r	.	8r	.	8r	.	.	.	4e/	4b\	.	8e\L	(>8e\L	.	8ee\L	.
.	.	.	.	.	.	8d/L	.	8b/L	.	.	.	.	.	.	8b\	8dd\	.	8ddd\	.
4E\	.	4E\	.	4E/ 4B	.	8c#/	.	8a/	.	.	.	4e/	4b\	.	8a\	8cc#\)	.	8ccc#\	.
.	.	.	.	.	.	8B/J	.	8g#/J	.	.	.	.	.	.	8g#\J	8b\J	.	8bb\J	.
!	!	!LO:LB:g=original	!	!	!	!	!	!	!	!	!	!	!	!	!	!	!	!	!
=37	=37	=37	=37	=37	=37	=37	=37	=37	=37	=37	=37	=37	=37	=37	=37	=37	=37	=37	=37
4A\	.	4A\	.	8A\L	.	4c#/	.	4a/	.	.	.	4A/	4a\	.	8a\L	(>8cc#\L	.	8ccc#\L	.
.	.	.	.	8c#\	.	.	.	.	.	.	.	.	.	.	8e\J	8b\J	.	8bb\J	.
4E\	.	4E\	.	8d\	.	4A/	.	4c#/ 4e	.	.	.	4r	4r	.	4c#/	4a\)	.	4aa\	.
.	.	.	.	8B\J	.	.	.	.	.	.	.	.	.	.	.	.	.	.	.
=38	=38	=38	=38	=38	=38	=38	=38	=38	=38	=38	=38	=38	=38	=38	=38	=38	=38	=38	=38
!	!	!	!	!LO:TX:a:t=P:problem: mixed beam	!	!	!	!	!	!LO:N:vis=00	!	!	!	!	!	!	!	!	!
4G#\	.	4G#\	.	8E/L	.	8r	.	8r	.	0r	.	4e/	4e\	.	8e\L	(>8e\L	.	2ee\	.
.	.	.	.	8d\	.	8d/L	.	8b/L	.	.	.	.	.	.	8b\	8dd\	.	.	.
4E\	.	4E\	.	8c#\	.	8c#/	.	8a/	.	.	.	4e/	4b\	.	8a\	8cc#\)	.	.	.
.	.	.	.	8B\J	.	8B/J	.	8g#/J	.	.	.	.	.	.	8g#\J	8b\J	.	.	.
=39	=39	=39	=39	=39	=39	=39	=39	=39	=39	=39	=39	=39	=39	=39	=39	=39	=39	=39	=39
4A\	.	4A\	.	4A\	.	4A/	.	4a/	.	.	.	4A/	4a\	.	4a\	4cc#\	.	4ccc#\	.
!	!	!	!	!	!LO:DY:rj	!	!LO:DY:rj	!	!	!	!	!	!	!	!	!	!	!	!
4D#;>\	.	4D#;>\	.	4d#X;\ 4f#	f	4d#X;>/ 4f#	f	4cn;>/ 4f#	f	.	.	4A;>/	4a;>\	.	4a;>\	4ff#;>\	.	4fff#;>\	.
!	!	!	!	!	!	!	!	!	!	!	!	!	!	!	!	!LO:LB:g=original	!	!	!
=40	=40	=40	=40	=40	=40	=40	=40	=40	=40	=40	=40	=40	=40	=40	=40	=40	=40	=40	=40
!	!	!	!	!	!	!	!	!LO:TX:a:t=P:problem: mixed beam	!	!	!	!	!	!	!	!	!	!	!
4E\	.	4E\	.	4e\	.	8e/L	.	8e/L	.	.	.	4e/	4e/	.	4cc#\	4ee\	.	4eee\	.
.	.	.	.	.	.	8c#/	.	8ee\	.	.	.	.	.	.	.	.	.	.	.
.	.	.	.	.	.	.	.	.	.	.	.	.	.	.	.	.	.	16qqfff#/LL	.
.	.	.	.	.	.	.	.	.	.	.	.	.	.	.	.	.	.	16qqeee/JJ	.
4r	.	4r	.	8dn\L	.	8B/	.	8dd\	.	.	.	4r	4r	.	8b\L	8dd\L	.	8ddd\L	.
.	.	.	.	8c#\J	.	8A/J	.	8cc#X\J	.	.	.	.	.	.	8a\J	8cc#\J	.	8ccc#\J	.
!	!	!	!	!	!	!	!	!	!	!	!	!	!	!	!	!	!	!LO:LB:g=original	!
=41	=41	=41	=41	=41	=41	=41	=41	=41	=41	=41	=41	=41	=41	=41	=41	=41	=41	=41	=41
4E\	.	4E\	.	4d\	.	8B/L	.	8e\L	.	.	.	4e/	4b\	.	4e/	4b\	.	8ee\L	.
.	.	.	.	.	.	8e/	.	8b\	.	.	.	.	.	.	.	.	.	8bb\	.
4r	.	4r	.	8c#\L	.	8a/	.	8cc#\	.	.	.	4e/	4b\	.	8a/L	8cc#\L	.	8.ccc#\	.
.	.	.	.	8B\J	.	8e/J	.	8b\J	.	.	.	.	.	.	8e/J	8b\J	.	.	.
.	.	.	.	.	.	.	.	.	.	.	.	.	.	.	.	.	.	16bb\Jk	.
=42	=42	=42	=42	=42	=42	=42	=42	=42	=42	=42	=42	=42	=42	=42	=42	=42	=42	=42	=42
!LO:TX:a:t=1.	!	!	!	!	!	!	!	!	!	!	!	!	!	!	!LO:N:vis=00	!	!	!LO:TX:a:t=13	!
!	!	!	!	!	!	!	!	!	!	!	!	!	!	!	!LO:TX:a:t=9.	!LO:N:vis=00	!	!LO:N:vis=00	!
2r	.	2r	.	2r	.	2r	.	2r	.	8.r	.	2r	2r	.	0r	0r	.	0r	.
.	.	.	.	.	.	.	.	.	.	(>16E\	De-	.	.	.	.	.	.	.	.
.	.	.	.	.	.	.	.	.	.	8.A\)	.	.	.	.	.	.	.	.	.
.	.	.	.	.	.	.	.	.	.	16B\	-us	.	.	.	.	.	.	.	.
=43	=43	=43	=43	=43	=43	=43	=43	=43	=43	=43	=43	=43	=43	=43	=43	=43	=43	=43	=43
!	!	!	!	!	!	!	!LO:DY:rj	!	!	!	!	!	!	!	!	!	!	!	!
4A\	p	4A\	p	4r	p	4r	p	4r	p	4c#\	tu-	4A/	4a\	.	.	.	.	.	.
4r	.	4r	.	4c#\ 4e	.	4c#/ 4e	.	4e/ 4cc#	.	4e\	-us	4r	4r	.	.	.	.	.	.
!	!	!	!	!LO:LB:g=original	!	!LO:LB:g=original	!	!	!	!LO:LB:g=original	!	!	!	!	!	!	!	!	!
=44	=44	=44	=44	=44	=44	=44	=44	=44	=44	=44	=44	=44	=44	=44	=44	=44	=44	=44	=44
4E\	.	4E\	.	4r	.	4r	.	4r	.	8.e\L	in	4e/	4b\	.	.	.	.	.	.
.	.	.	.	.	.	.	.	.	.	16d\Jk	.	.	.	.	.	.	.	.	.
4r	.	4r	.	4d\ 4e	.	4d/ 4e	.	4d/ 4b	.	(>8.B\L	.	4r	4r	.	.	.	.	.	.
.	.	.	.	.	.	.	.	.	.	16c#\Jk)	.	.	.	.	.	.	.	.	.
!	!	!	!	!	!	!	!	!LO:LB:g=original	!	!	!	!	!	!	!	!	!	!	!
=45	=45	=45	=45	=45	=45	=45	=45	=45	=45	=45	=45	=45	=45	=45	=45	=45	=45	=45	=45
4AA/	.	4AA/	.	4r	.	4r	.	4r	.	(>8A\	Si-	4A/	4a\	.	.	.	.	.	.
.	.	.	.	.	.	.	.	.	.	8c#\)	.	.	.	.	.	.	.	.	.
4r	.	4r	.	4c#\ 4e	.	4c#/ 4e	.	4c#/ 4e	.	4E\	-on	4r	4r	.	.	.	.	.	.
!LO:LB:g=original	!	!	!	!	!	!	!	!	!	!	!	!LO:LB:g=original	!LO:LB:g=original	!	!	!	!	!	!
=46	=46	=46	=46	=46	=46	=46	=46	=46	=46	=46	=46	=46	=46	=46	=46	=46	=46	=46	=46
!	!	!	!	!	!	!	!	!	!	!	!	!LO:TX:a:t=1.	!LO:TX:a:t=1	!	!LO:N:vis=00	!LO:N:vis=00	!	!LO:N:vis=00	!
4A\	.	4A\	.	4r	.	4r	.	4r	.	8.r	.	2r	2r	.	0r	0r	.	0r	.
.	.	.	.	.	.	.	.	.	.	16E\	in	.	.	.	.	.	.	.	.
4r	.	4r	.	4c#\ 4e	.	4c#/ 4e	.	4c#/ 4e	.	8.A\	ge-	.	.	.	.	.	.	.	.
.	.	.	.	.	.	.	.	.	.	16B\	-ne-	.	.	.	.	.	.	.	.
!	!	!LO:LB:g=original	!	!	!	!	!	!	!	!	!	!	!	!	!	!	!	!	!
=47	=47	=47	=47	=47	=47	=47	=47	=47	=47	=47	=47	=47	=47	=47	=47	=47	=47	=47	=47
4A\	.	4A\	.	4A\	.	4A/	.	4a/	.	4c#\	-ra-	4A/	4a\	.	.	.	.	.	.
!	!	!	!	!	!LO:DY:b:i:t=fo	!	!	!	!LO:DY:rj	!	!	!	!	!	!	!	!	!	!
4G#\	<	4G#\	.	4c#\ 4e	f	4c#/ 4e	.	4e/ 4cc#	f	4c#\	-ti-	4c#/	4cc#\	.	.	.	.	.	.
=48	=48	=48	=48	=48	=48	=48	=48	=48	=48	=48	=48	=48	=48	=48	=48	=48	=48	=48	=48
4G#\	.	4G#\	.	4f#\	.	4d#X/	.	4g#/ 4b#X	.	4B#X\	-o-	4c#/	4cc#\	.	.	.	.	.	.
4C#\	.	4C#\	.	4e\	.	4c#/ 4e	.	4e/ 4cc#	.	4c#\	.	4c#/	4cc#\	.	.	.	.	.	.
=49	=49	=49	=49	=49	=49	=49	=49	=49	=49	=49	=49	=49	=49	=49	=49	=49	=49	=49	=49
!	!	!	!LO:DY:rj	!	!	!	!	!	!	!	!	!	!	!	!	!	!	!	!
4E\	f	4E\	f	4E/ 4B	.	4g#/ 4b	.	4e/ 4dd	.	4d\	-nem	4e/	4b\	.	.	.	.	.	.
4r	.	4r	.	4r	.	4r	.	4r	.	4r	.	4r	4r	.	.	.	.	.	.
!	!	!	!	!	!	!	!	!	!	!LO:PB:g=original	!	!	!	!	!	!	!	!	!
=50	=50	=50	=50	=50	=50	=50	=50	=50	=50	=50	=50	=50	=50	=50	=50	=50	=50	=50	=50
!	!	!	!	!LO:TX:a:t=1.	!	!	!	!	!	!	!	!LO:TX:a:t=5	!LO:TX:a:t=5	!	!	!	!	!	!
!	!	!	!	!	!	!	!	!	!	!	!	!LO:N:vis=00	!LO:N:vis=00	!	!	!	!	!LO:N:vis=00	!
2r	.	2r	.	2r	.	2r	.	2r	.	8.r	.	0r	0r	.	2r	2r	.	0r	.
.	.	.	.	.	.	.	.	.	.	16E\	in	.	.	.	.	.	.	.	.
.	.	.	.	.	.	.	.	.	.	8.A\	ge-	.	.	.	.	.	.	.	.
.	.	.	.	.	.	.	.	.	.	16B\	-ne-	.	.	.	.	.	.	.	.
=51	=51	=51	=51	=51	=51	=51	=51	=51	=51	=51	=51	=51	=51	=51	=51	=51	=51	=51	=51
4A\	.	4A\	.	4r	p	4r	.	4r	p	4c#\	-ra-	.	.	.	4r	4r	.	.	.
!	!	!	!	!	!	!	!LO:DY:rj	!	!	!	!	!	!	!	!	!	!	!	!
4r	.	4r	.	4c#\ 4e	.	4c#/ 4e	p	4e/ 4cc#	.	4e\	-ti-	.	.	.	4a\	4cc#\	.	.	.
!	!	!	!	!	!	!	!	!	!	!	!	!	!	!	!LO:LB:g=original	!	!	!	!
=52	=52	=52	=52	=52	=52	=52	=52	=52	=52	=52	=52	=52	=52	=52	=52	=52	=52	=52	=52
4E\	.	4E\	.	4r	.	4r	.	4r	.	(>8.e\L	-o-	.	.	.	4r	4r	p	.	.
.	.	.	.	.	.	.	.	.	.	16d\Jk)	.	.	.	.	.	.	.	.	.
4r	.	4r	.	4E/ 4B	.	4d/ 4e	.	4d/ 4b	.	8.B\L	.	.	.	.	4e/	4b\	.	.	.
.	.	.	.	.	.	.	.	.	.	16c#\Jk	.	.	.	.	.	.	.	.	.
!	!	!	!	!LO:LB:g=original	!	!LO:LB:g=original	!	!	!	!	!	!	!	!	!	!	!	!	!
=53	=53	=53	=53	=53	=53	=53	=53	=53	=53	=53	=53	=53	=53	=53	=53	=53	=53	=53	=53
4AA/	.	4AA/	.	4r	.	4r	.	4r	.	(>8A\	.	.	.	.	4r	4r	.	.	.
.	.	.	.	.	.	.	.	.	.	8c#\)	.	.	.	.	.	.	.	.	.
4r	.	4r	.	4c#\ 4e	.	4c#/ 4e	.	4c#/ 4e	.	4E\	-nem	.	.	.	4e/	4e/	.	.	.
=54	=54	=54	=54	=54	=54	=54	=54	=54	=54	=54	=54	=54	=54	=54	=54	=54	=54	=54	=54
4A\	.	4A\	.	4r	.	4r	.	4r	.	8.r	.	2r	2r	.	2r	2r	.	2r	.
.	.	.	.	.	.	.	.	.	.	.	.	.	.	.	.	.	.	.	.
.	.	.	.	.	.	.	.	.	.	16E\	et	.	.	.	.	.	.	.	.
4r	.	4r	f	4c#\ 4e	.	4A/	.	4c#/ 4e	.	8.A\	ge-	.	.	.	.	.	.	.	.
.	.	.	.	.	.	.	.	.	.	.	.	.	.	.	.	.	.	.	.
.	.	.	.	.	.	.	.	.	.	16B\	-ne-	.	.	.	.	.	.	.	.
!	!	!	!	!	!	!	!	!LO:LB:g=original	!	!LO:LB:g=original	!	!	!	!	!	!	!	!	!
=55	=55	=55	=55	=55	=55	=55	=55	=55	=55	=55	=55	=55	=55	=55	=55	=55	=55	=55	=55
!	!LO:DY:rj	!	!	!	!	!	!	!	!	!	!	!	!	!	!	!	!	!	!
4A\	f	4A\	.	4A\	.	4c#/	.	4a/	f	4c#\	-ra-	4A/	4a\	.	4e/	4cc#\	<	4r	.
!	!	!	!	!	!LO:DY:b:i:t=fo:	!	!	!	!	!	!	!	!	!	!	!	!	!	!
4G#\	.	4G#\	.	4c#\ 4e	f	4c#/ 4e	.	4e/ 4cc#	.	4c#\	-ti-	4c#/	4cc#\	.	4e/	4cc#\	.	4ccc#\	.
!LO:LB:g=original	!	!	!	!	!	!	!	!	!	!	!	!	!	!	!	!	!	!	!
=56	=56	=56	=56	=56	=56	=56	=56	=56	=56	=56	=56	=56	=56	=56	=56	=56	=56	=56	=56
4G#\	.	4G#\	.	4f#\	.	4d#X/	.	4g#/ 4b#X	.	4B#X\	-o-	4c#/	4cc#\	.	4d#X/	4b#X\	.	4bb#X\	.
4C#\	.	4C#/	.	4e\	.	4c#/ 4e	.	4e/ 4cc#	.	4c#\	.	4c#/	4cc#\	.	4e/	4cc#\	.	4ccc#\	.
!	!	!	!	!	!	!	!	!	!	!	!	!	!	!	!	!LO:LB:g=original	!	!	!
=57	=57	=57	=57	=57	=57	=57	=57	=57	=57	=57	=57	=57	=57	=57	=57	=57	=57	=57	=57
4E\	.	4E;>\	.	4E/ 4B	.	4g#/ 4b	.	4e/ 4dd	.	4d\	-nem	4e/	4b\	.	4b\	4dd\	f	4ddd\	.
4r;>	.	4r	.	4r;>	.	4r;>	.	4r;>	.	4r;>	.	4r;>	4r;>	.	4r;>	4r;>	.	4r;>	.
!	!	!LO:LB:g=original	!	!	!	!	!	!	!	!	!	!	!	!	!	!	!	!	!
=58	=58	=58	=58	=58	=58	=58	=58	=58	=58	=58	=58	=58	=58	=58	=58	=58	=58	=58	=58
!	!	!	!	!	!	!	!	!	!	!	!	!LO:TX:a:t=g	!	!	!LO:TX:a:t=4.	!LO:TX:a:t=4.	!	!LO:TX:a:t=2.	!
!	!	!	!	!	!	!	!	!	!	!	!	!LO:SIC:s=4e/	!	!	!LO:N:vis=00	!LO:N:vis=00	!	!LO:N:vis=0	!
4E\	.	4E\	.	4r	.	4r	p	4r	p	8r	.	4c#/ 4e	4b\	.	0r	0r	.	1r	.
.	.	.	.	.	.	.	.	.	.	8d\	re-	.	.	.	.	.	.	.	.
4r	.	4r	.	4E/ 4B	.	4B/ 4e	.	4e/ 4b	.	8c#\	-gna-	4r	4r	.	.	.	.	.	.
.	.	.	.	.	.	.	.	.	.	8B\	-bit	.	.	.	.	.	.	.	.
=59	=59	=59	=59	=59	=59	=59	=59	=59	=59	=59	=59	=59	=59	=59	=59	=59	=59	=59	=59
4A\	.	4A\	.	4r	.	4r	.	4r	.	8c#\	Do-	4c#/	4a\	.	.	.	.	.	.
.	.	.	.	.	.	.	.	.	.	8d\	-mi-	.	.	.	.	.	.	.	.
4r	.	4r	.	4A/	.	4c#/ 4e	.	4a\ 4cc#	.	4e\	-nus	4a\	4cc#\	.	.	.	.	.	.
=60	=60	=60	=60	=60	=60	=60	=60	=60	=60	=60	=60	=60	=60	=60	=60	=60	=60	=60	=60
4E\	.	4E\	.	4r	.	4r	.	4r	.	8r	.	4e/	4b\	.	.	.	.	2eeT>\	.
.	.	.	.	.	.	.	.	.	.	(>8d\	De-	.	.	.	.	.	.	.	.
4r	.	4r	.	4E/ 4B	.	4d/ 4e	.	4e/ 4b	.	8c#\)	.	4r	4r	.	.	.	.	.	.
.	.	.	.	.	.	.	.	.	.	8B\	-us	.	.	.	.	.	.	.	.
!	!	!	!	!	!	!	!	!	!	!LO:LB:g=original	!	!LO:LB:g=original	!LO:LB:g=original	!	!	!	!	!	!
=61	=61	=61	=61	=61	=61	=61	=61	=61	=61	=61	=61	=61	=61	=61	=61	=61	=61	=61	=61
4A\	.	4A\	.	4r	.	4r	.	4r	.	(>8c#\	tu-	4A/	4a\	.	.	.	.	8aa\L	.
.	.	.	.	.	.	.	.	.	.	8B\)	.	.	.	.	.	.	.	8ee\	.
4r	.	4r	.	4E/ 4A	.	4c#/ 4e	.	4c#/ 4e	.	4A\	-us	4r	4r	.	.	.	.	8aa\J	.
.	.	.	.	.	.	.	.	.	.	.	.	.	.	.	.	.	.	8r	.
!	!	!	!	!	!	!LO:LB:g=original	!	!	!	!	!	!	!	!	!	!	!	!	!
=62	=62	=62	=62	=62	=62	=62	=62	=62	=62	=62	=62	=62	=62	=62	=62	=62	=62	=62	=62
4E\	.	4E\	.	4r	.	4r	.	4r	.	8r	.	4E/	4b\	.	8e\L	8e\L	.	2r	.
.	.	.	.	.	.	.	.	.	.	8d\	Do-	.	.	.	8b\	8dd\	.	.	.
4r	.	4r	.	4E/ 4B	.	4d/ 4e	.	4e/ 4b	.	8c#\	-mi-	4e/	4b\	.	8a\	8cc#\	.	.	.
.	.	.	.	.	.	.	.	.	.	8B\	-nus	.	.	.	8g#\J	8b\J	.	.	.
!	!	!	!	!LO:LB:g=original	!	!	!	!	!	!	!	!	!	!	!	!	!	!	!
=63	=63	=63	=63	=63	=63	=63	=63	=63	=63	=63	=63	=63	=63	=63	=63	=63	=63	=63	=63
4AA/	.	4AA/	.	4A/	.	4A/	.	4a/	.	4c#\	De-	4A/	4a\	.	4a\	4cc#\	.	4ccc#\	f
!	!	!	!	!	!LO:DY:rj	!	!	!	!	!	!	!	!	!	!	!	!	!	!
8D#;>\	ff	8D#;>/	f	4d#X;>\ 4f#	f	4d#X;>/ 4f#	.	4cn;>/ 4f#	.	4f#;>\	-us	4A;>/	4a;>\	.	4a;>\	4ff#;>^<\	.	4ddd;>\	.
8r	.	8r	.	.	.	.	.	.	.	.	.	.	.	.	.	.	.	.	.
!LO:LB:g=original	!	!	!	!	!	!	!	!LO:LB:g=original	!	!	!	!	!	!	!LO:LB:g=original	!	!	!LO:LB:g=original	!
=64	=64	=64	=64	=64	=64	=64	=64	=64	=64	=64	=64	=64	=64	=64	=64	=64	=64	=64	=64
!	!LO:DY:rj	!	!	!	!	!	!	!	!LO:DY:rj	!	!	!	!	!	!	!	!	!	!
4E\	p	4E\	p	8A/L	.	8r	.	8r	f	4e\	tu-	4E/	4e/	.	4A/	4cc#\	.	4eee\	.
*	*	*	*	*	*	*tremolo	*	*	*	*	*	*	*	*	*	*	*	*	*
.	.	.	.	8c#/	.	8c#/L 8e	.	8c#X/L 8e	.	.	.	.	.	.	.	.	.	.	.
!	!	!	!	!	!	!	!	!	!LO:DY:b:rj	!	!	!	!	!	!	!	!	!	!
4r	.	4r	.	8e/	.	8c#/ 8e	.	8c#/ 8e	p	8c#\	-us	4r	4r	.	4r	4r	.	4r	.
.	.	.	.	8c#/J	.	8c#J/ 8e	.	8c#/J 8e	.	8A\	in	.	.	.	.	.	.	.	.
=65	=65	=65	=65	=65	=65	=65	=65	=65	=65	=65	=65	=65	=65	=65	=65	=65	=65	=65	=65
4E\	.	4E\	.	8E/L	.	8r	.	8r	.	(>8E\	sae-	4e/	4b\	.	4e/	4b\	.	4ee\	.
.	.	.	.	8G#/	.	8d/L 8e	.	8B/L 8g#	.	16F#\LL	.	.	.	.	.	.	.	.	.
.	.	.	.	.	.	.	.	.	.	16E\JJ)	.	.	.	.	.	.	.	.	.
4r	.	4r	.	8B/	.	8d/ 8e	.	8B/ 8g#	.	16D/LL	.	4r	4r	.	4r	4r	.	4r	.
.	.	.	.	.	.	.	.	.	.	16C#/JJ	.	.	.	.	.	.	.	.	.
.	.	.	.	8e/J	.	8d/J 8e	.	8B/J 8g#	.	16D/LL	-cu-	.	.	.	.	.	.	.	.
.	.	.	.	.	.	.	.	.	.	16BB/JJ	.	.	.	.	.	.	.	.	.
*	*	*	*	*	*	*Xtremolo	*	*	*	*	*	*	*	*	*	*	*	*	*
!	!	!	!	!	!	!	!	!	!	!LO:LB:g=original	!	!	!	!	!	!	!	!	!
=66	=66	=66	=66	=66	=66	=66	=66	=66	=66	=66	=66	=66	=66	=66	=66	=66	=66	=66	=66
!	!	!	!	!	!	!	!	!	!	!	!	!LO:TX:a:t=3.	!LO:TX:a:t=3.	!	!LO:TX:a:t=3.	!LO:TX:a:t=3.	!	!LO:TX:a:t=3.	!
!	!	!	!	!	!	!	!	!	!	!	!	!LO:N:vis=0	!LO:N:vis=0	!	!LO:N:vis=0	!LO:N:vis=0	!	!LO:N:vis=0	!
4A\	.	4A\	pp	8r	.	8r	pp	8r	pp	16A\LL	-la	1r	1r	.	1r	1r	.	1r	.
.	.	.	.	.	.	.	.	.	.	16B\JJ	.	.	.	.	.	.	.	.	.
*	*	*	*	*tremolo	*	*	*	*	*	*	*	*	*	*	*	*	*	*	*
.	.	.	.	8A/L	pp	8A/L	.	8a\L 8cc#	.	16c#\LL	.	.	.	.	.	.	.	.	.
.	.	.	.	.	.	.	.	.	.	16B\JJ	.	.	.	.	.	.	.	.	.
4r	.	4r	.	8A/	.	8a/	.	8a\ 8cc#	.	16A\LL	.	.	.	.	.	.	.	.	.
.	.	.	.	.	.	.	.	.	.	16G#\JJ	.	.	.	.	.	.	.	.	.
.	.	.	.	8A/J	.	8cc#/J	.	8a\J 8cc#	.	16F#\LL	.	.	.	.	.	.	.	.	.
.	.	.	.	.	.	.	.	.	.	16E\JJ	.	.	.	.	.	.	.	.	.
=67	=67	=67	=67	=67	=67	=67	=67	=67	=67	=67	=67	=67	=67	=67	=67	=67	=67	=67	=67
4F#\	.	4F#\	.	8r	.	8r	.	8r	.	16F#\LL	.	.	.	.	.	.	.	.	.
.	.	.	.	.	.	.	.	.	.	16G#\JJ	.	.	.	.	.	.	.	.	.
*	*	*	*	*	*	*tremolo	*	*	*	*	*	*	*	*	*	*	*	*	*
.	.	.	.	8F#/L	.	8f#/L 8a	.	8f#/L 8a	.	16A\LL	.	.	.	.	.	.	.	.	.
.	.	.	.	.	.	.	.	.	.	16G#\JJ	.	.	.	.	.	.	.	.	.
4r	.	4r	.	8F#/	.	8f#/ 8a	.	8f#/ 8a	.	16F#\LL	.	.	.	.	.	.	.	.	.
.	.	.	.	.	.	.	.	.	.	16E\JJ	.	.	.	.	.	.	.	.	.
.	.	.	.	8F#/J	.	8f#/J 8a	.	8f#/J 8a	.	16D\LL	.	.	.	.	.	.	.	.	.
.	.	.	.	.	.	.	.	.	.	16C#\JJ	.	.	.	.	.	.	.	.	.
!	!	!LO:LB:g=original	!	!	!	!	!	!	!	!	!	!	!	!	!	!	!	!	!
=68	=68	=68	=68	=68	=68	=68	=68	=68	=68	=68	=68	=68	=68	=68	=68	=68	=68	=68	=68
4D\	.	4D\	.	8r	.	8r	.	8r	.	16D\LL	.	2r	2r	.	2r	2r	.	2r	.
.	.	.	.	.	.	.	.	.	.	16E\JJ	.	.	.	.	.	.	.	.	.
.	.	.	.	8D/L	.	8d/L 8f#	.	8d/L 8f#	.	16F#\LL	.	.	.	.	.	.	.	.	.
.	.	.	.	.	.	.	.	.	.	16E\JJ	.	.	.	.	.	.	.	.	.
4r	.	4r	.	8D/	.	8d/ 8f#	.	8d/ 8f#	.	16D\LL	.	.	.	.	.	.	.	.	.
.	.	.	.	.	.	.	.	.	.	16C#\JJ	.	.	.	.	.	.	.	.	.
.	.	.	.	8D/J	.	8d/J 8f#	.	8d/J 8f#	.	16D\LL	.	.	.	.	.	.	.	.	.
.	.	.	.	.	.	.	.	.	.	16BB\JJ	.	.	.	.	.	.	.	.	.
*	*	*	*	*	*	*Xtremolo	*	*	*	*	*	*	*	*	*	*	*	*	*
=69	=69	=69	=69	=69	=69	=69	=69	=69	=69	=69	=69	=69	=69	=69	=69	=69	=69	=69	=69
4E\	.	4E\	.	8r	.	8r	.	8r	.	4E\	De-	4A/	4a\	.	4a\	4cc#\	.	4ee\	.
.	.	.	.	8E/L	.	8c#/ 8e	.	8c#/ 8e	.	.	.	.	.	.	.	.	.	.	.
.	.	.	.	.	.	.	.	.	.	16qqF#/LL	.	.	.	.	.	.	.	.	.
.	<	.	.	.	.	.	.	.	.	16qqE/JJ	.	.	.	.	.	.	.	.	.
!	!	!	!	!	!	!	!	!	!	!LO:TX:a:t=P:problem:kauda z prawej strony	!	!	!	!	!	!	!	!	!
4E\	.	4E\	.	8E/	.	8r	.	8r	.	4C#\	-us	4r	4r	.	4e\	4ee\	.	4aa\	.
.	.	.	.	8E/J	.	8c#/ 8e	.	8c#/ 8e	.	.	.	.	.	.	.	.	.	.	.
*	*	*	*	*Xtremolo	*	*	*	*	*	*	*	*	*	*	*	*	*	*	*
!	!	!	!	!	!	!LO:LB:g=original	!	!LO:LB:g=original	!	!LO:LB:g=original	!	!	!	!	!	!	!	!	!
=70	=70	=70	=70	=70	=70	=70	=70	=70	=70	=70	=70	=70	=70	=70	=70	=70	=70	=70	=70
4E\	.	4E\	.	4e\	.	8r	.	8r	.	4E\	tu-	4e/	4b\	.	4E/	4cc#\	.	4ee\	.
.	.	.	.	.	.	8B/ 8d	.	8B/ 8e	.	.	.	.	.	.	.	.	.	.	.
.	.	.	.	.	.	.	.	.	.	16qqF#/LL	.	.	.	.	.	.	.	.	.
.	.	.	.	.	.	.	.	.	.	16qqE/JJ	.	.	.	.	.	.	.	.	.
4r	.	4r	.	4E/	.	8r	.	8r	.	4BB\	-us	4e/	4b\	.	4e/	4cc#\	.	4ee\	.
.	.	.	.	.	.	8d/ 8e	.	8e/ 8b	.	.	.	.	.	.	.	.	.	.	.
!	!	!	!	!	!	!	!	!	!	!	!	!	!	!	!	!LO:LB:g=original	!	!	!
=71	=71	=71	=71	=71	=71	=71	=71	=71	=71	=71	=71	=71	=71	=71	=71	=71	=71	=71	=71
!	!	!	!	!	!	!	!LO:DY:b:t=p&colon;	!	!	!	!	!LO:TX:a:t=3	!LO:TX:a:t=3.	!	!LO:TX:a:t=3.	!LO:TX:a:t=3.	!	!LO:TX:a:t=3.	!
!	!	!	!	!	!	!	!	!	!	!	!	!LO:N:vis=0	!LO:N:vis=0	!	!LO:N:vis=0	!LO:N:vis=0	!	!LO:N:vis=0	!
4A\	pp	4A\	.	8r	.	8r	p	8r	p	16A\LL	in	1r	1r	.	1r	1r	.	1r	.
.	.	.	.	.	.	.	.	.	.	16B\JJ	.	.	.	.	.	.	.	.	.
*	*	*	*	*tremolo	*	*tremolo	*	*	*	*	*	*	*	*	*	*	*	*	*
.	.	.	.	8A/L	.	8a/L	.	8a\L 8cc#	.	16c#\LL	.	.	.	.	.	.	.	.	.
.	.	.	.	.	.	.	.	.	.	16B\JJ	.	.	.	.	.	.	.	.	.
4r	.	4r	pp	8A/	.	8a/	.	8a\ 8cc#	.	16A\LL	sae-	.	.	.	.	.	.	.	.
.	.	.	.	.	.	.	.	.	.	16G#\JJ	.	.	.	.	.	.	.	.	.
.	.	.	.	8A/J	.	8a/J	.	8a\J 8cc#	.	16F#\LL	-cu-	.	.	.	.	.	.	.	.
.	.	.	.	.	.	.	.	.	.	16E\JJ	.	.	.	.	.	.	.	.	.
=72	=72	=72	=72	=72	=72	=72	=72	=72	=72	=72	=72	=72	=72	=72	=72	=72	=72	=72	=72
4F#\	.	4F#\	.	8r	.	8r	.	8r	.	16F#\LL	-la	.	.	.	.	.	.	.	.
.	.	.	.	.	.	.	.	.	.	16G#\JJ	.	.	.	.	.	.	.	.	.
*	*	*	*	*	*	*	*	*tremolo	*	*	*	*	*	*	*	*	*	*	*
.	.	.	.	8F#/L	.	8f#/L	.	8f#/L 8a	.	16A\LL	.	.	.	.	.	.	.	.	.
.	.	.	.	.	.	.	.	.	.	16G#\JJ	.	.	.	.	.	.	.	.	.
4r	.	4r	.	8F#/	.	8f#/	.	8f#/ 8a	.	16F#\LL	.	.	.	.	.	.	.	.	.
.	.	.	.	.	.	.	.	.	.	16E\JJ	.	.	.	.	.	.	.	.	.
.	.	.	.	8F#/J	.	8f#/J	.	8f#/J 8a	.	16D\LL	.	.	.	.	.	.	.	.	.
.	.	.	.	.	.	.	.	.	.	16C#\JJ	.	.	.	.	.	.	.	.	.
*	*	*	*	*	*	*	*	*Xtremolo	*	*	*	*	*	*	*	*	*	*	*
=73	=73	=73	=73	=73	=73	=73	=73	=73	=73	=73	=73	=73	=73	=73	=73	=73	=73	=73	=73
4D\	.	4D\	.	8r	.	8r	.	8r	.	16D\LL	.	2r	2r	.	2r	2r	.	2r	.
.	.	.	.	.	.	.	.	.	.	16E\JJ	.	.	.	.	.	.	.	.	.
.	.	.	.	8D/L	.	8d/L	.	8d/L 8f#	.	16F#\LL	.	.	.	.	.	.	.	.	.
.	.	.	.	.	.	.	.	.	.	16E\JJ	.	.	.	.	.	.	.	.	.
4r	.	4r	.	8D/	.	8d/	.	8d/ 8f#	.	16D\LL	.	.	.	.	.	.	.	.	.
.	.	.	.	.	.	.	.	.	.	16C#\JJ	.	.	.	.	.	.	.	.	.
.	.	.	.	8D/J	.	8d/J	.	8d/J 8f#	.	16D\LL	.	.	.	.	.	.	.	.	.
.	.	.	.	.	.	.	.	.	.	16BB\JJ	.	.	.	.	.	.	.	.	.
*	*	*	*	*Xtremolo	*	*Xtremolo	*	*	*	*	*	*	*	*	*	*	*	*	*
!LO:LB:g=original	!	!	!	!LO:LB:g=original	!	!	!	!	!	!LO:LB:g=original	!	!	!	!	!	!	!	!	!
=74	=74	=74	=74	=74	=74	=74	=74	=74	=74	=74	=74	=74	=74	=74	=74	=74	=74	=74	=74
4E\	.	4E\	.	4E/	.	8r	.	8r	.	8E\	Do-	4A/	4a\	.	4a\	4cc#\	.	4ee\	.
.	.	.	.	.	.	8c#/ 8e	.	8c#/ 8e	.	8E\	-mi-	.	.	.	.	.	.	.	.
4r	.	4E\	.	4E/	.	8r	.	8r	.	4A\	-nus	4r	4r	.	8.a\L	8.cc#\L	.	8.ee\L	.
.	.	.	.	.	.	8c#/ 8e	.	8c#/ 8a	.	.	.	.	.	.	.	.	.	.	.
.	.	.	.	.	.	.	.	.	.	.	.	.	.	.	16a\Jk	16cc#\Jk	.	16ee\Jk	.
!	!	!	!	!	!	!	!	!	!	!	!	!LO:LB:g=original	!LO:LB:g=original	!	!	!	!	!	!
=75	=75	=75	=75	=75	=75	=75	=75	=75	=75	=75	=75	=75	=75	=75	=75	=75	=75	=75	=75
*	*	*	*	*	*	*	*	*	*	*	*ij	*	*	*	*	*	*	*	*
4E\	.	4E\	.	4E/	.	8r	.	8r	.	8E\	Do-	4e/	4b\	.	4e/	4b\	.	4ee\	.
.	.	.	.	.	.	8B/ 8d	.	8d/ 8e	.	8E\	-mi-	.	.	.	.	.	.	.	.
4r	.	4E\	.	4E/	.	8r	.	8r	.	4B\	-nus	4e/	4b\	.	4e/	4b\	.	4ee\	.
*	*	*	*	*	*	*	*	*	*	*	*Xij	*	*	*	*	*	*	*	*
.	.	.	.	.	.	8B/ 8e	.	8d/ 8b	.	.	.	.	.	.	.	.	.	.	.
!	!	!	!	!	!	!	!	!LO:LB:g=original	!	!	!	!	!	!	!	!	!	!	!
=76	=76	=76	=76	=76	=76	=76	=76	=76	=76	=76	=76	=76	=76	=76	=76	=76	=76	=76	=76
!	!	!	!	!	!	!	!	!	!	!	!	!LO:TX:a:t=4	!LO:TX:a:t=4.	!	!LO:TX:a:t=4.	!LO:TX:a:t=4.	!	!LO:TX:a:t=4.	!
!	!	!	!	!	!	!	!	!	!	!	!	!LO:N:vis=00	!LO:N:vis=00	!	!LO:N:vis=00	!LO:N:vis=00	!	!LO:N:vis=00	!
4A\	.	4A\	.	8r	.	8r	.	8r	.	4c#\	De-	0r	0r	.	0r	0r	.	0r	.
*	*	*	*	*tremolo	*	*tremolo	*	*	*	*	*	*	*	*	*	*	*	*	*
!	!	!	!	!	!	!	!	!	!LO:DY:b:t=p&colon;	!	!	!	!	!	!	!	!	!	!
!	!	!	!	!	!	!	!	!	!LO:DY:rj	!	!	!	!	!	!	!	!	!	!
.	.	.	.	8A/L	.	8a/L	.	8a\L 8cc#	p	.	.	.	.	.	.	.	.	.	.
4r	.	4r	.	8A/	.	8a/	.	8a\ 8cc#	.	4c#\	-us	.	.	.	.	.	.	.	.
.	.	.	.	8A/J	.	8a/J	.	8a\J 8cc#	.	.	.	.	.	.	.	.	.	.	.
=77	=77	=77	=77	=77	=77	=77	=77	=77	=77	=77	=77	=77	=77	=77	=77	=77	=77	=77	=77
4E#\	.	4E#\	.	8r	.	8r	.	8r	.	4c#\	tu-	.	.	.	.	.	.	.	.
*	*	*	*	*	*	*	*	*tremolo	*	*	*	*	*	*	*	*	*	*	*
.	.	.	.	8e#X\L	.	8B/L 8e#X	.	8g#\L 8cc#	.	.	.	.	.	.	.	.	.	.	.
4r	.	4r	.	8e#X\	.	8B/ 8e#X	.	8g#\ 8cc#	.	8d\	-us	.	.	.	.	.	.	.	.
.	.	.	.	8e#X\J	.	8B/J 8e#X	.	8g#\J 8cc#	.	8c#\	in	.	.	.	.	.	.	.	.
*	*	*	*	*	*	*	*	*Xtremolo	*	*	*	*	*	*	*	*	*	*	*
!	!	!LO:LB:g=original	!	!	!	!LO:LB:g=original	!	!	!	!	!	!	!	!	!	!	!	!	!
=78	=78	=78	=78	=78	=78	=78	=78	=78	=78	=78	=78	=78	=78	=78	=78	=78	=78	=78	=78
4F#\	.	4F#\	.	8r	.	8r	.	8r	.	4c#\	sae-	.	.	.	.	.	.	.	.
.	.	.	.	8f#\L	.	8f#/L 8a	.	8a\L 8cc#	.	.	.	.	.	.	.	.	.	.	.
4r	.	4r	.	8f#\	.	8f#/ 8a	.	8a\ 8cc#	.	8d\	-cu-	.	.	.	.	.	.	.	.
.	.	.	.	8f#\J	.	8f#/J 8a	.	8a\J 8cc#	.	8c#\	-la.	.	.	.	.	.	.	.	.
.	.	.	.	.	.	.	.	.	.	.	.	.	.	.	.	.	.	.	.
!	!	!	!	!	!	!	!	!	!	!LO:LB:g=original	!	!	!	!	!	!	!	!	!
=79	=79	=79	=79	=79	=79	=79	=79	=79	=79	=79	=79	=79	=79	=79	=79	=79	=79	=79	=79
4D\	.	4D\	.	8r	.	8r	.	8r	.	(>8B\	Lau-	.	.	.	.	.	.	.	.
.	.	.	.	8d\L	.	8d/L 8f#	.	8d/L 8b	.	8A\)	.	.	.	.	.	.	.	.	.
4r	.	4r	.	8d\	.	8d/ 8f#	.	8d/ 8b	.	8G#\	-da-	.	.	.	.	.	.	.	.
.	.	.	.	8d\J	.	8d/J 8f#	.	8d/J 8b	.	8F#\	-bo	.	.	.	.	.	.	.	.
*	*	*	*	*Xtremolo	*	*Xtremolo	*	*	*	*	*	*	*	*	*	*	*	*	*
!	!	!	!	!	!	!	!	!	!	!	!	!	!	!	!LO:LB:g=original	!	!	!LO:LB:g=original	!
=80	=80	=80	=80	=80	=80	=80	=80	=80	=80	=80	=80	=80	=80	=80	=80	=80	=80	=80	=80
4E\	.	4E\	.	4e\	.	8r	.	8r	.	16F#\LL	De-	4c#/	4a\	.	4A/	4cc#\	.	4ee\	.
.	.	.	.	.	.	.	.	.	.	(>16E\	.	.	.	.	.	.	.	.	.
.	.	.	.	.	.	8c#/ 8e	.	8c#/ 8e	.	16D#X\	.	.	.	.	.	.	.	.	.
.	.	.	.	.	.	.	.	.	.	16E\JJ)	.	.	.	.	.	.	.	.	.
4E\	<	4E\	<	4e\	.	8r	.	8r	.	4A\	-um	4a/	4cc#\	.	8.a\L	8.cc#\L	.	8.ee\L	.
.	.	.	.	.	.	8c#/ 8e	.	8c#/ 8a	.	.	.	.	.	.	.	.	.	.	.
.	.	.	.	.	.	.	.	.	.	.	.	.	.	.	16a\Jk	16cc#\Jk	<	16ee\Jk	.
=81	=81	=81	=81	=81	=81	=81	=81	=81	=81	=81	=81	=81	=81	=81	=81	=81	=81	=81	=81
4E\	.	4E\	.	4E/	.	8r	.	8r	.	16F#\LL	me-	4E/	4b\	.	4e/	4b\	.	4ee\	.
.	.	.	.	.	.	.	.	.	.	16E\	.	.	.	.	.	.	.	.	.
.	.	.	.	.	.	8B/ 8d	.	8d/ 8e	.	16D#X\	.	.	.	.	.	.	.	.	.
.	.	.	.	.	.	.	.	.	.	16E\JJ	.	.	.	.	.	.	.	.	.
4E\	.	4E\	.	4E/	.	8r	.	8r	.	4B\	-um	4e/	4b\	.	4e/	4b\	.	4ee\	.
.	.	.	.	.	.	8d/ 8e	.	8d/ 8b	.	.	.	.	.	.	.	.	.	.	.
=82	=82	=82	=82	=82	=82	=82	=82	=82	=82	=82	=82	=82	=82	=82	=82	=82	=82	=82	=82
!	!	!	!	!	!	!	!	!	!	!	!	!LO:TX:a:t=4	!LO:TX:a:t=4.	!	!LO:TX:a:t=4.	!LO:TX:a:t=4.	!	!LO:TX:a:t=4.	!
!	!	!	!	!	!	!	!	!	!	!	!	!LO:N:vis=00	!LO:N:vis=00	!	!LO:N:vis=00	!LO:N:vis=00	!	!LO:N:vis=00	!
4A\	.	4A\	.	8r	.	8r	.	8r	p	4c#\	in	0r	0r	.	0r	0r	.	0r	.
*	*	*	*	*tremolo	*	*tremolo	*	*tremolo	*	*	*	*	*	*	*	*	*	*	*
.	.	.	.	8A/L	.	8a/L	.	8a\L 8cc#	.	.	.	.	.	.	.	.	.	.	.
4r	.	4r	.	8A/	.	8a/	.	8a\ 8cc#	.	8d\	vi-	.	.	.	.	.	.	.	.
.	.	.	.	8A/J	.	8a/J	.	8a\J 8cc#	.	8c#\	-ta	.	.	.	.	.	.	.	.
!LO:LB:g=original	!	!	!	!	!	!	!	!LO:LB:g=original	!	!	!	!	!	!	!	!	!	!	!
=83	=83	=83	=83	=83	=83	=83	=83	=83	=83	=83	=83	=83	=83	=83	=83	=83	=83	=83	=83
4E#\	.	4E#\	.	8r	.	8r	.	8r	.	(>8c#\	me-	.	.	.	.	.	.	.	.
.	.	.	.	8e#X\L	.	8B/L 8e#X	.	8g#\L 8cc#	.	8d\)	.	.	.	.	.	.	.	.	.
4r	.	4r	.	8e#X\	.	8B/ 8e#X	.	8g#\ 8cc#	.	8c#\	-a	.	.	.	.	.	.	.	.
.	.	.	.	8e#X\J	.	8B/J 8e#X	.	8g#\J 8cc#	.	8r	.	.	.	.	.	.	.	.	.
!	!	!	!	!LO:LB:g=original	!	!	!	!	!	!LO:LB:g=original	!	!	!	!	!	!	!	!	!
=84	=84	=84	=84	=84	=84	=84	=84	=84	=84	=84	=84	=84	=84	=84	=84	=84	=84	=84	=84
4F#\	.	4F#\	.	8r	.	8r	.	8r	.	4c#\	in	.	.	.	.	.	.	.	.
.	.	.	.	8f#\L	.	8f#/L 8a	.	8a\L 8cc#	.	.	.	.	.	.	.	.	.	.	.
4r	.	4r	.	8f#\	.	8f#/ 8a	.	8a\ 8cc#	.	8d\	vi-	.	.	.	.	.	.	.	.
.	.	.	.	8f#\J	.	8f#/J 8a	.	8a\J 8cc#	.	8c#\	-ta	.	.	.	.	.	.	.	.
=85	=85	=85	=85	=85	=85	=85	=85	=85	=85	=85	=85	=85	=85	=85	=85	=85	=85	=85	=85
4D\	.	4D\	.	8r	.	8r	.	8r	.	(>8B\	me-	.	.	.	.	.	.	.	.
.	.	.	.	8d\L	.	8d/L 8f#	.	8d/L 8b	.	8A\	.	.	.	.	.	.	.	.	.
4r	.	4r	.	8d\	.	8d/ 8f#	.	8d/ 8b	.	8G#\	.	.	.	.	.	.	.	.	.
.	.	.	.	8d\J	.	8d/J 8f#	.	8d/J 8b	.	8F#\)	-a	.	.	.	.	.	.	.	.
*	*	*	*	*Xtremolo	*	*Xtremolo	*	*Xtremolo	*	*	*	*	*	*	*	*	*	*	*
=86	=86	=86	=86	=86	=86	=86	=86	=86	=86	=86	=86	=86	=86	=86	=86	=86	=86	=86	=86
!	!	!	!	!	!	!	!	!	!	!	!	!LO:TX:a:t=P:problem:kauda z prawej strony	!	!	!	!	!	!	!
4E\	.	4E\	.	4e\	.	8r	.	8r	.	(>16F#\LL	me-	4e\	4e\	.	4A/	4a\	.	4r	.
.	.	.	.	.	.	.	.	.	.	16E\J	.	.	.	.	.	.	.	.	.
.	.	.	.	.	.	8c#/ 8e	.	8c#/ 8e	.	8E\J)	.	.	.	.	.	.	.	.	.
4E\	.	4E\	.	4e\	.	8r	.	8r	.	4E\	-a	4a\	4cc#\	.	8.a\L	8.cc#\L	.	8.ccc#\L	.
.	.	.	.	.	.	8c#/ 8e	.	8c#/ 8a	.	.	.	.	.	.	.	.	.	.	.
.	.	.	.	.	.	.	.	.	.	.	.	.	.	.	16a\Jk	16cc#\Jk	.	16ccc#\Jk	.
!	!	!	!	!	!	!LO:LB:g=original	!	!	!	!	!	!	!	!	!	!	!	!	!
=87	=87	=87	=87	=87	=87	=87	=87	=87	=87	=87	=87	=87	=87	=87	=87	=87	=87	=87	=87
4E\	.	4E\	.	4E/	.	8r	.	8r	.	(>8E\	Lau-	4e/	4b\	.	4g#\	4b\	.	4bb\	.
.	.	.	.	.	.	8B/ 8d	.	8d/ 8e	.	16F#\L	.	.	.	.	.	.	.	.	.
.	.	.	.	.	.	.	.	.	.	16E\J)	.	.	.	.	.	.	.	.	.
4E\	.	4E\	.	4E/	.	8r	.	8r	.	(<16D/LL	-da-	4e/	4b\	.	4e/	4ee\	.	4eee\	.
.	.	.	.	.	.	.	.	.	.	16C#/)	.	.	.	.	.	.	.	.	.
.	.	.	.	.	.	8B/ 8d	.	8d/ 8e	.	(<16D/	-bo	.	.	.	.	.	.	.	.
.	.	.	.	.	.	.	.	.	.	16BB/JJ)	.	.	.	.	.	.	.	.	.
!	!	!LO:LB:g=original	!	!	!	!	!	!	!	!LO:LB:g=original	!	!	!	!	!	!LO:LB:g=original	!	!	!
=88	=88	=88	=88	=88	=88	=88	=88	=88	=88	=88	=88	=88	=88	=88	=88	=88	=88	=88	=88
*2\right	*	*2\right	*	*	*	*	*	*	*	*	*	*	*	*	*	*	*	*	*
*tremolo	*	*tremolo	*	*tremolo	*	*tremolo	*	*tremolo	*	*2\right	*	*	*	*	*	*	*	*	*
!	!LO:DY:rj	!	!	!	!	!	!LO:DY:rj	!	!LO:DY:rj	!	!	!	!	!	!	!	!	!	!
!	!	!	!	!	!	!	!LO:DY:b:t=p&colon;	!	!	!	!	!	!	!	!	!	!	!	!
8AA/L	pp	8AA/L	pp	8A/L	.	8c#/L	p	8c#/L 8e	p	2AA/	De-	(>2A/	2e/	p	8c#/L	4.a\	.	4.aa\	.
8AA/	.	8AA/	.	8A/	.	8c#/	.	8c#/ 8e	.	.	.	.	.	.	8e/	.	.	.	.
8AA/	.	8AA/	.	8A/	.	8c#/	.	8c#/ 8e	.	.	.	.	.	.	8c#/	.	.	.	.
8AA/J	.	8AA/J	.	8A/J	.	8c#/J	.	8c#/J 8e	.	.	.	.	.	.	8e/J	(>16e\LL	.	16ee\LL	.
.	.	.	.	.	.	.	.	.	.	.	.	.	.	.	.	16cc#\JJ)	pp	16ccc#\JJ	.
=89	=89	=89	=89	=89	=89	=89	=89	=89	=89	=89	=89	=89	=89	=89	=89	=89	=89	=89	=89
!	!	!	!	!	!	!	!	!	!	!	!	!	!	!	!	!LO:TX:a:t=P:problem: mixed beam	!	!	!
8E\L	.	8E\L	.	8e\L	.	8G#/L	.	8d/L 8e	.	2E\	-um	(>2e/)	2e/	.	8d/L	(>8b\L	.	8bb\L	.
8E\	.	8E\	.	8e\	.	8G#/	.	8d/ 8e	.	.	.	.	.	.	8e/	8ee\)	.	8eee\	.
8E\	.	8E\	.	8e\	.	8G#/	.	8d/ 8e	.	.	.	.	.	.	8d/	8e/	.	8ee\	.
8E\J	.	8E\J	.	8e\J	.	8G#/J	.	8d/J 8e	.	.	.	.	.	.	8e/J	8ee\J	.	8eee\J	.
=90	=90	=90	=90	=90	=90	=90	=90	=90	=90	=90	=90	=90	=90	=90	=90	=90	=90	=90	=90
8AA/L	.	8AA/L	.	8A/L	.	8c#/L	.	8c#/L 8e	.	2AA/	me-	(>2A/)	2e/	.	8c#/L	4.a\	.	4.aa\	.
8AA/	.	8AA/	.	8A/	.	8c#/	.	8c#/ 8e	.	.	.	.	.	.	8e/	.	.	.	.
8AA/	.	8AA/	.	8A/	.	8c#/	.	8c#/ 8e	.	.	.	.	.	.	8c#/	.	.	.	.
8AA/J	.	8AA/J	.	8A/J	.	8c#/J	.	8c#/J 8e	.	.	.	.	.	.	8e/J	(>16e\LL	.	16ee\LL	.
.	.	.	.	.	.	.	.	.	.	.	.	.	.	.	.	16cc#\JJ)	.	16ccc#\JJ	.
!	!	!	!	!	!	!	!	!	!	!	!	!	!	!	!LO:LB:g=original	!	!	!LO:LB:g=original	!
=91	=91	=91	=91	=91	=91	=91	=91	=91	=91	=91	=91	=91	=91	=91	=91	=91	=91	=91	=91
!	!	!	!	!	!	!	!	!	!	!	!	!	!	!	!	!LO:TX:a:t=P:problem: mixed beam	!	!	!
8E\L	.	8E\L	.	8e\L	.	8G#/L	.	8d/L 8e	.	2E\	-um	(>2e/)	2e/	.	8d/L	(>8b\L	.	8bb\L	.
8E\	.	8E\	.	8e\	.	8G#/	.	8d/ 8e	.	.	.	.	.	.	8e/	8ee\	.	8eee\	.
8E\	.	8E\	.	8e\	.	8G#/	.	8d/ 8e	.	.	.	.	.	.	8d/	8e/)	.	8ee\	.
8E\J	.	8E\J	.	8e\J	.	8G#/J	.	8d/J 8e	.	.	.	.	.	.	8e/J	8ee\J	.	8eee\J	.
*Xtremolo	*	*Xtremolo	*	*Xtremolo	*	*	*	*	*	*	*	*	*	*	*	*	*	*	*
!LO:LB:g=original	!	!	!	!	!	!	!	!LO:LB:g=original	!	!	!	!	!	!	!	!	!	!	!
=92	=92	=92	=92	=92	=92	=92	=92	=92	=92	=92	=92	=92	=92	=92	=92	=92	=92	=92	=92
!	!	!	!	!	!	!	!	!	!	!	!	!	!	!	!	!	!	!LO:TX:a:t=2.	!
!	!	!	!	!	!	!	!	!	!	!	!	!	!	!	!	!	!	!LO:N:vis=0	!
4AA/	.	4AA/	.	4A/	.	8r	.	8r	.	2c#\	in	4A/)	4a\	.	4A/	4cc#\	.	1r	.
!	!	!	!	!	!	!	!LO:DY:rj	!	!	!	!	!	!	!	!	!	!	!	!
.	.	.	.	.	.	8c#/L 8e	pp	8a\L 8cc#	.	.	.	.	.	.	.	.	.	.	.
4r	.	4r	.	4r	.	8c#/ 8e	.	8a\ 8cc#	.	.	.	4r	4r	.	4r	4r	.	.	.
.	.	.	.	.	.	8c#/J 8e	.	8a\J 8cc#	.	.	.	.	.	.	.	.	.	.	.
*	*	*	*	*	*	*	*	*Xtremolo	*	*	*	*	*	*	*	*	*	*	*
!	!	!	!	!	!	!	!	!	!	!	!	!LO:LB:g=original	!LO:LB:g=original	!	!	!	!	!	!
=93	=93	=93	=93	=93	=93	=93	=93	=93	=93	=93	=93	=93	=93	=93	=93	=93	=93	=93	=93
!	!	!	!	!	!	!	!	!	!	!	!	!	!	!	!	!LO:TX:a:t=1	!	!	!
4D\	<	4D\	.	4d\	.	8r	.	8r	.	8d\	vi-	2r	2r	.	2r	2r	.	.	.
.	.	.	.	.	.	8d/L 8f#	.	8d/L 8b	.	16d\LL	-ta	.	.	.	.	.	.	.	.
.	.	.	.	.	.	.	.	.	.	16c#\JJ	.	.	.	.	.	.	.	.	.
4r	.	4r	.	4r	.	8d/ 8f#	.	8d/ 8b	.	(>16B\LL	me-	.	.	.	.	.	.	.	.
.	.	.	.	.	.	.	.	.	.	16A\)	.	.	.	.	.	.	.	.	.
.	.	.	.	.	.	8d/J 8f#	.	8d/J 8b	.	(>16G#\	-a	.	.	.	.	.	.	.	.
.	.	.	.	.	.	.	.	.	.	16F#\JJ)	.	.	.	.	.	.	.	.	.
*	*	*	*	*	*	*Xtremolo	*	*	*	*	*	*	*	*	*	*	*	*	*
!	!	!	!	!	!	!	!	!	!	!LO:LB:g=original	!	!	!	!	!	!	!	!	!
=94	=94	=94	=94	=94	=94	=94	=94	=94	=94	=94	=94	=94	=94	=94	=94	=94	=94	=94	=94
*	*	*	*	*	*	*	*	*tremolo	*	*	*	*	*	*	*2\right	*2\right	*	*	*
4E\	.	4E\	.	8r	.	8r	.	8r	.	8F#\L	me-	4c#/	4a\	.	2a\	2cc#\	.	4r	.
.	.	.	.	8A/L	.	8c#/L 8e	.	8c#/L 8e	.	8E\J	.	.	.	.	.	.	.	.	.
4r	.	4r	.	8c#/	.	8c#/ 8e	.	8c#/ 8e	.	4E\	-a	4a\	4cc#\	.	.	.	.	8.ee\L	.
.	.	.	.	8e/J	.	8c#/J 8e	.	8c#/J 8e	.	.	.	.	.	.	.	.	.	.	.
.	.	.	.	.	.	.	.	.	.	.	.	.	.	.	.	.	.	16ee\Jk	.
!	!	!	!	!LO:LB:g=original	!	!	!	!	!	!	!	!	!	!	!	!	!	!	!
=95	=95	=95	=95	=95	=95	=95	=95	=95	=95	=95	=95	=95	=95	=95	=95	=95	=95	=95	=95
4E\	.	4E\	.	8r	.	8r	.	8r	.	8G#\	Lau-	4e/	4b\	.	4e/	4cc#\	.	4gg#\	.
*	*	*	*	*tremolo	*	*tremolo	*	*	*	*	*	*	*	*	*	*	*	*	*
.	.	.	.	8B/L 8d	.	8d/L 8e	.	8d/L 8e	.	(>16A\LL	.	.	.	.	.	.	.	.	.
.	.	.	.	.	.	.	.	.	.	16G#\JJ)	.	.	.	.	.	.	.	.	.
4r	.	4r	.	8B/ 8d	.	8d/ 8e	.	8d/ 8e	.	8F#\	-da-	4e/	4b\	.	4r	4r	.	4r	.
.	.	.	.	8B/J 8d	.	8d/J 8e	.	8d/J 8e	.	8G#\	-bo	.	.	.	.	.	.	.	.
*	*	*	*	*	*	*	*	*Xtremolo	*	*	*	*	*	*	*	*	*	*	*
!	!	!	!	!	!	!LO:LB:g=original	!	!	!	!	!	!	!	!	!	!LO:LB:g=original	!	!	!
=96	=96	=96	=96	=96	=96	=96	=96	=96	=96	=96	=96	=96	=96	=96	=96	=96	=96	=96	=96
!	!	!	!	!	!	!	!	!LO:TX:a:t=P:problem: mixed beam	!	!	!	!	!	!	!	!	!	!LO:TX:a:t=2.	!
!	!	!	!	!	!	!	!	!	!	!	!	!	!	!	!	!	!	!LO:N:vis=0	!
4A\	.	4A\	.	8r	.	8r	.	8A/L 8c#/	.	4c#\	De-	4A/	4a\	.	4a\	4cc#\	.	1r	.
.	.	.	.	8c#\L 8e	.	8c#/L 8e	.	8a\ 8cc#\	.	.	.	.	.	.	.	.	.	.	.
.	.	.	.	.	.	.	.	.	.	.	.	.	.	.	.	.	.	.	.
4r	.	4r	.	8c#\ 8e	.	8c#/ 8e	.	8a\ 8cc#\	.	4e\	-um	4r	4r	.	4cc#\	4ee\	.	.	.
.	.	.	.	8c#\J 8e	.	8c#/J 8e	.	8a\J 8cc#\	.	.	.	.	.	.	.	.	.	.	.
.	.	.	.	.	.	.	.	.	.	.	.	.	.	.	.	.	.	.	.
=97	=97	=97	=97	=97	=97	=97	=97	=97	=97	=97	=97	=97	=97	=97	=97	=97	=97	=97	=97
*	*	*	*	*	*	*	*	*tremolo	*	*	*	*	*	*	*	*	*	*	*
!	!	!	!	!	!	!	!	!	!	!	!	!	!LO:TX:a:t=1	!	!	!	!	!	!
4D\	.	4D\	.	8r	.	8r	.	8r	.	(>8d\	in	2r	2r	.	2r	2r	.	.	.
.	.	.	.	8d\L 8f#	.	8d/L 8f#	.	8d/L 8b	.	16d\LL	.	.	.	.	.	.	.	.	.
.	.	.	.	.	.	.	.	.	.	16c#\JJ)	.	.	.	.	.	.	.	.	.
4r	.	4r	.	8d\ 8f#	.	8d/ 8f#	.	8d/ 8b	.	16B\LL	vi-	.	.	.	.	.	.	.	.
.	.	.	.	.	.	.	.	.	.	16A\	.	.	.	.	.	.	.	.	.
.	.	.	.	8d\J 8f#	.	8d/J 8f#	.	8d/J 8b	.	16G#\	-ta	.	.	.	.	.	.	.	.
.	.	.	.	.	.	.	.	.	.	16F#\JJ	.	.	.	.	.	.	.	.	.
!	!	!LO:LB:g=original	!	!	!	!	!	!	!	!LO:LB:g=original	!	!	!	!	!	!	!	!	!
=98	=98	=98	=98	=98	=98	=98	=98	=98	=98	=98	=98	=98	=98	=98	=98	=98	=98	=98	=98
4E\	.	4E\	.	8r	.	8r	.	8r	.	(>8E\	me-	4e\	4a\	.	4r	4r	.	4r	.
.	.	.	.	8c#\L 8e	.	8c#/L 8e	.	8c#/L 8e	.	16F#\LL	.	.	.	.	.	.	.	.	.
.	.	.	.	.	.	.	.	.	.	16E\JJ)	.	.	.	.	.	.	.	.	.
4r	.	4r	.	8c#\ 8e	.	8c#/ 8e	.	8c#/ 8e	.	4A\	-a	4a\	4cc#\	.	4a\	4cc#\	.	8.aa\L	.
.	.	.	.	8c#\J 8e	.	8c#/J 8e	.	8c#/J 8e	.	.	.	.	.	.	.	.	.	.	.
.	.	.	.	.	.	.	.	.	.	.	.	.	.	.	.	.	.	16aa\Jk	.
=99	=99	=99	=99	=99	=99	=99	=99	=99	=99	=99	=99	=99	=99	=99	=99	=99	=99	=99	=99
*	*	*	*	*	*	*	*	*	*	*Xtuplet	*	*	*	*	*	*	*	*	*
!	!	!	!	!	!	!	!	!	!	!LO:TUP:a:problem:klamra łukowa, kropka zamiast numeru	!	!	!	!	!	!	!	!	!
4E\	.	4E\	.	8r	.	8r	.	8r	.	12r	.	4e\	4b\	.	4r	4r	.	4ee\	.
.	.	.	.	.	.	.	.	.	.	12E\L	in	.	.	.	.	.	.	.	.
.	.	.	.	8B\L 8d	f	8B/L 8d	.	8d/L 8e	.	.	.	.	.	.	.	.	.	.	.
.	.	.	.	.	.	.	.	.	.	12F#\J	.	.	.	.	.	.	.	.	.
!	!	!	!	!	!	!	!	!	!	!LO:TUP:a:problem:klamra łukowa, kropka zamiast numeru	!	!	!	!	!	!	!	!	!
4r	f	4r	.	8B\ 8d	.	8B/ 8d	.	8d/ 8e	.	12G#\L	vi-	4e\	4b\	.	4e/	4b\	.	4r	.
.	.	.	.	.	.	.	.	.	.	12A\	.	.	.	.	.	.	.	.	.
.	.	.	.	8B\J 8d	.	8B/J 8d	.	8d/J 8e	.	.	.	.	.	.	.	.	.	.	.
!	!	!	!	!	!	!	!	!	!	!LO:TX:a:t=|:problem	!	!	!	!	!	!	!	!	!
.	.	.	.	.	.	.	.	.	.	12B\J	-ta	.	.	.	.	.	.	.	.
!	!	!	!	!	!	!	!	!LO:LB:g=original	!	!	!	!	!	!	!LO:LB:g=original	!	!	!	!
=100	=100	=100	=100	=100	=100	=100	=100	=100	=100	=100	=100	=100	=100	=100	=100	=100	=100	=100	=100
*tremolo	*	*tremolo	*	*	*	*	*	*	*	*	*	*	*	*	*	*	*	*	*
!	!	!	!	!	!	!	!LO:DY:rj	!	!LO:DY:rj	!	!	!	!	!	!	!	!	!LO:TX:a:t=2.	!
!	!	!	!	!	!	!	!	!	!	!	!	!	!	!	!	!	!	!LO:N:vis=0	!
8AA/L	.	8AA/L	.	16A/LL	.	16c#/LL	f	16e/LL	f	4c#\	me-	4A/	4a\	.	4a\	4cc#\	.	1r	.
.	.	.	.	16c#/	.	16e/	.	16cc#/	.	.	.	.	.	.	.	.	.	.	.
8AA/	.	8AA/	.	16A/	.	16c#/	.	16e/	.	.	.	.	.	.	.	.	.	.	.
.	.	.	.	16c#/	.	16e/	.	16cc#/	.	.	.	.	.	.	.	.	.	.	.
8AA/	.	8AA/	.	16A/	.	16c#/	.	16e/	.	4e\	-a	4r	4r	.	4cc#\	4ee\	.	.	.
.	.	.	.	16c#/	.	16e/	.	16cc#/	.	.	.	.	.	.	.	.	.	.	.
8AA/J	.	8AA/J	.	16A/	.	16c#/	.	16e/	.	.	.	.	.	.	.	.	.	.	.
.	.	.	.	16c#/JJ	.	16e/JJ	.	16cc#/JJ	.	.	.	.	.	.	.	.	.	.	.
!LO:LB:g=original	!	!	!	!	!	!	!	!	!	!	!	!	!	!	!	!	!	!	!
=101	=101	=101	=101	=101	=101	=101	=101	=101	=101	=101	=101	=101	=101	=101	=101	=101	=101	=101	=101
8D/L	.	8D\L	.	16d\LL	.	16d/LL	.	16d/LL	.	(>8d\	in	4A/	4a\	.	2r	2r	.	.	.
.	.	.	.	16f#\	.	16f#/	.	16b/	.	.	.	.	.	.	.	.	.	.	.
8D/	.	8D\	.	16d\	.	16d/	.	16d/	.	16d\LL	.	.	.	.	.	.	.	.	.
.	.	.	.	16f#\	.	16f#/	.	16b/	.	16c#\JJ)	.	.	.	.	.	.	.	.	.
8D/	.	8D\	.	16d\	.	16d/	.	16d/	.	(>16B\LL	vi-	8.A/L	8.cc#\L	.	.	.	.	.	.
.	.	.	.	16f#\	.	16f#/	.	16b/	.	16A\)	.	.	.	.	.	.	.	.	.
8D/J	.	8D\J	.	16d\	.	16d/	.	16d/	.	(>16G#\	-ta	.	.	.	.	.	.	.	.
.	.	.	.	16f#\JJ	.	16f#/JJ	.	16b/JJ	.	16F#\JJ)	.	16A/Jk	16cc#\Jk	.	.	.	.	.	.
*Xtremolo	*	*Xtremolo	*	*Xtremolo	*	*Xtremolo	*	*Xtremolo	*	*	*	*	*	*	*	*	*	*	*
!	!	!	!	!	!	!	!	!	!	!LO:LB:g=original	!	!LO:LB:g=original	!LO:LB:g=original	!	!	!	!	!	!
=102	=102	=102	=102	=102	=102	=102	=102	=102	=102	=102	=102	=102	=102	=102	=102	=102	=102	=102	=102
4E\	.	4E\	.	8e\	.	8e/	.	8e/	.	8F#\	me-	4e/	4b\	.	2a\	2cc#\	.	4ccc#\	.
.	.	.	.	8r	.	8r	.	8r	.	8E\	-a	.	.	.	.	.	.	.	.
*	*	*	*	*	*	*	*	*	*	*	*ij	*	*	*	*	*	*	*	*
!	!	!	!	!	!	!	!LO:DY:rj	!	!	!	!	!	!	!	!	!	!	!	!
4E\	.	4E\	.	4A\ 4e 4a	.	4c#/ 4e 4a	f	4e\ 4cc# 4aa	.	8A\	me-	4e/	4b\	.	.	.	.	4eee\	.
.	.	.	.	.	.	.	.	.	.	8E\	-a	.	.	.	.	.	.	.	.
*	*	*	*	*	*	*	*	*	*	*	*Xij	*	*	*	*	*	*	*	*
=103	=103	=103	=103	=103	=103	=103	=103	=103	=103	=103	=103	=103	=103	=103	=103	=103	=103	=103	=103
4E\	.	4EE/	.	8e\	.	8e/	.	8e/	.	8E\	in	4A/	4a\	.	2e/	2b\	.	8r	.
.	.	.	.	8r	.	8r	.	8r	.	16F#\LL	vi-	.	.	.	.	.	.	8bb\L	.
.	.	.	.	.	.	.	.	.	.	16E\JJ	.	.	.	.	.	.	.	.	.
4E\	.	4EE/	.	4e\ 4b	.	4e\ 4b 4ee	.	4d\ 4b 4gg#	.	16D/LL	-ta	4A/	4a\	.	.	.	.	8ccc#\	.
.	.	.	.	.	.	.	.	.	.	16C#/	.	.	.	.	.	.	.	.	.
.	.	.	.	.	.	.	.	.	.	16D/	me-	.	.	.	.	.	.	8bb\J	.
.	.	.	.	.	.	.	.	.	.	16BB/JJ	.	.	.	.	.	.	.	.	.
!	!	!	!	!LO:LB:g=original	!	!LO:LB:g=original	!	!	!	!	!	!	!	!	!	!	!	!LO:LB:g=original	!
=104	=104	=104	=104	=104	=104	=104	=104	=104	=104	=:|!|:104	=104	=104	=104	=104	=104	=104	=104	=104	=104
!	!	!LO:TX:a:t=P:problem:mixed beam	!	!LO:TX:a:t=P:problem:takty 104-107 ujęte w klamry repetycji i łukiem	!	!LO:TX:a:t=P:problem:takty 104-107 ujęte w klamry repetycji	!	!LO:TX:a:t=P:problem:takty 104-107 ujęte w klamry repetycji	!	!	!	!	!	!	!LO:TX:a:t=P:problem:mixed beam	!	!	!LO:TX:a:t=P:problem:takty 104-107 ujęte w klamry repetycji	!
8AA\L	.	8AA/L	.	8A/L	.	8A/L	.	8a\L 8aa	.	4AA/	-a	4A/	4a\	.	8A/L	8a'>\L	.	8aa\L	.
!LO:TX:a:t=P:problem:cauda z prawej strony	!	!	!	!	!	!	!	!	!	!	!	!	!	!	!	!	!	!	!
8E\	.	8E\	.	(<16c#/L	.	16c#/L	.	(>16cc#\L	.	.	.	.	.	.	(>16a\L	(>16cc#\L	.	16ccc#\L	.
.	.	.	.	16d/JJ)	.	16d/JJ	.	16dd\JJ)	.	.	.	.	.	.	16b\JJ)	16dd\JJ)	.	16ddd\JJ	.
8A\	.	8A\	.	8e\L	.	8c#/L	.	8ee\L	.	4r	.	4A/	4a\	.	8cc#\L	8ee'>\L	.	8eee\L	.
8E\J	.	8E\J	.	(>16c#\L	.	16a/L	.	(>16cc#\L	.	.	.	.	.	.	(>16a\L	(>16cc#\L	.	16ccc#\L	.
.	.	.	.	16d\JJ)	.	16b/JJ	.	16dd\JJ)	.	.	.	.	.	.	16b\JJ)	16dd\JJ)	.	16ddd\JJ	.
!	!	!	!	!	!	!	!	!	!	!	!	!	!	!	!	!LO:LB:g=original	!	!	!
=105	=105	=105	=105	=105	=105	=105	=105	=105	=105	=105	=105	=105	=105	=105	=105	=105	=105	=105	=105
!	!	!	!	!	!	!	!	!	!	!LO:N:vis=00	!	!	!	!	!	!	!	!	!
!	!	!	!	!	!	!	!	!	!	!LO:TX:a:t=9.	!	!	!	!	!	!	!	!	!
!	!	!	!	!	!	!	!	!	!	!LO:TX:a:t=P:problem: zanotowana pauza 9-taktowa, powinna być 11	!	!	!	!	!	!	!	!	!
8A\L	.	8A\L	.	16e\LL	.	16cc#\LL	.	16ee\LL	.	0r	.	4e/	4b\	.	8cc#\L	8ee\L	.	8eee\L	.
.	.	.	.	16e\	.	16cc#\	.	16ee\	.	.	.	.	.	.	.	.	.	.	.
8E\	.	8E\	.	16f#\	.	16dd\	.	16ff#\	.	.	.	.	.	.	8dd\	8ff#\	.	8fff#\J	.
.	.	.	.	16f#\JJ	.	16dd\JJ	.	16ff#\JJ	.	.	.	.	.	.	.	.	.	.	.
8A\	.	8A\	.	16e\LL	.	16cc#\LL	.	16ee\LL	.	.	.	4e/	4b\	.	8cc#\	8ee\	.	8eee\L	.
.	.	.	.	16e\	.	16cc#\	.	16ee\	.	.	.	.	.	.	.	.	.	.	.
8E\J	.	8E\J	.	16a\	.	16cc#\	.	16aa\	.	.	.	.	.	.	8cc#\J	8aa\J	.	8aaa\J	.
.	.	.	.	16a\JJ	.	16cc#\JJ	.	16aa\JJ	.	.	.	.	.	.	.	.	.	.	.
!	!	!LO:LB:g=original	!	!	!	!	!	!LO:LB:g=original	!	!	!	!	!	!	!	!	!	!	!
=106	=106	=106	=106	=106	=106	=106	=106	=106	=106	=106	=106	=106	=106	=106	=106	=106	=106	=106	=106
*	*	*	*	*	*	*	*	*	*	*	*	*rep	*	*	*	*	*	*	*
!	!	!	!	!	!	!	!	!	!	!	!	!LO:TX:a:t=P:problem:brak cyfr nad znakami repetycji	!	!	!	!	!	!	!
8G#\L	.	8G#\L	.	16g#\LL	.	16ee\LL	.	16gg#\LL	.	.	.	4e/	4b\	.	8ee\L	8gg#\L	.	8ggg#\L	.
.	.	.	.	16g#\	.	16ee\	.	16gg#\	.	.	.	.	.	.	.	.	.	.	.
8E\	.	8E\	.	16f#\	.	16dd\	.	16ff#\	.	.	.	.	.	.	8dd\	8ff#\	.	8fff#\	.
.	.	.	.	16f#\JJ	.	16dd\JJ	.	16ff#\JJ	.	.	.	.	.	.	.	.	.	.	.
8G#\	.	8G#\	.	16e\LL	.	16cc#\LL	.	16ee\LL	.	.	.	4e/	4b\	.	8cc#\	8ee\	.	8eee\	.
.	.	.	.	16e\	.	16cc#\	.	16ee\	.	.	.	.	.	.	.	.	.	.	.
8E\J	.	8E\J	.	16d\	.	16b\	.	16dd\	.	.	.	.	.	.	8dd\J	8ff#\J	.	8fff#\J	.
.	.	.	.	16d\JJ	.	16b\JJ	.	16dd\JJ	.	.	.	.	.	.	.	.	.	.	.
*	*	*	*	*	*	*	*	*	*	*	*	*Xrep	*	*	*	*	*	*	*
=107	=107	=107	=107	=107	=107	=107	=107	=107	=107	=107	=107	=107	=107	=107	=107	=107	=107	=107	=107
*rep	*	*rep	*	*	*	*	*	*	*	*	*	*	*	*	*	*	*	*	*
!LO:TX:a:t=P:problem:brak cyfr nad znakami repetycji	!	!LO:TX:a:t=P:problem:brak cyfr nad znakami repetycji	!	!	!	!	!	!	!	!	!	!	!	!	!	!	!	!	!
8G#\L	.	8G#\L	.	16e\LL	.	16cc#\LL	.	16ee\LL	.	.	.	4A/	4a\	.	8cc#\L	8ee\L	.	8eee\L	.
.	.	.	.	16e\	.	16cc#\	.	16ee\	.	.	.	.	.	.	.	.	.	.	.
8E\	.	8E\	.	16d\	.	16b\	.	16dd\	.	.	.	.	.	.	8b\	8dd\J	.	8ddd\	.
.	.	.	.	16d\JJ	.	16b\JJ	.	16dd\JJ	.	.	.	.	.	.	.	.	.	.	.
8G#\	.	8G#\	.	16c#\LL	.	16a\LL	.	16cc#\LL	.	.	.	4A/	4a\	.	8a\	8cc#\L	.	8ccc#\	.
.	.	.	.	16c#\	.	16a\	.	16cc#\	.	.	.	.	.	.	.	.	.	.	.
8E\J	.	8E\J	.	16B\	.	16g#\	.	16b\	.	.	.	.	.	.	8g#\J	8b\J	.	8bb\J	.
.	.	.	.	16B\JJ	.	16g#\JJ	.	16b\JJ	.	.	.	.	.	.	.	.	.	.	.
*Xrep	*	*Xrep	*	*	*	*	*	*	*	*	*	*	*	*	*	*	*	*	*
!LO:LB:g=original	!	!	!	!	!	!	!	!	!	!	!	!	!	!	!LO:LB:g=original	!	!	!	!
=108	=108	=108	=108	=108	=108	=108	=108	=108	=108	=108	=108	=108	=108	=108	=108	=108	=108	=108	=108
*	*	*	*	*	*	*	*	*	*	*	*	*rep	*rep	*	*	*	*	*	*
!	!	!LO:TX:a:t=P:problem:mixed beam	!	!LO:TX:a:t=P:problem:takty 108-111 to rozpisana repetycja	!	!LO:TX:a:t=P:problem:takty 108-111 to rozpisana repetycja	!	!LO:TX:a:t=P:problem:takty 108-111 to rozpisana repetycja	!	!	!	!	!	!	!LO:TX:a:t=P:problem:mixed beam	!	!	!LO:TX:a:t=P:problem:takty 108-111 to rozpisana repetycja	!
8AA\L	.	8AA/L	.	8A/L	.	8A/L	.	8a\L 8aa	.	.	.	4A/	4a\	.	8A/L	8a'>\L	.	8aa\L	.
8E\	.	8E\	.	(<16c#/L	.	16c#/L	.	(>16cc#\L	.	.	.	.	.	.	16a\L	(>16cc#\L	.	16ccc#\L	.
.	.	.	.	16d/JJ)	.	16e/JJ	.	16dd\JJ)	.	.	.	.	.	.	16b\JJ	16dd\JJ)	.	16ddd\JJ	.
8A\	.	8A\	.	8e\L	.	8c#/L	.	8ee\L	.	.	.	4A/	4a\	.	8cc#\L	8ee'>\L	.	8eee\L	.
8E\J	.	8E\J	.	(>16c#\L	.	16a/L	.	(>16cc#\L	.	.	.	.	.	.	(>16a\L	(>16cc#\L	.	16ccc#\L	.
.	.	.	.	16d\JJ)	.	16b/JJ	.	16dd\JJ)	.	.	.	.	.	.	16b\JJ)	16dd\JJ)	.	16ddd\JJ	.
*	*	*	*	*	*	*	*	*	*	*	*	*Xrep	*Xrep	*	*	*	*	*	*
=109	=109	=109	=109	=109	=109	=109	=109	=109	=109	=109	=109	=109	=109	=109	=109	=109	=109	=109	=109
!	!	!	!	!	!	!	!	!	!	!LO:N:vis=00	!	!	!	!	!	!	!	!	!
8A\L	.	8A\L	.	16e\LL	.	16cc#\LL	.	16ee\LL	.	0r	.	4e/	4b\	.	8cc#\L	8ee\L	.	8eee\L	.
.	.	.	.	16e\	.	16cc#\	.	16ee\	.	.	.	.	.	.	.	.	.	.	.
8E\	.	8E\	.	16f#\	.	16dd\	.	16ff#\	.	.	.	.	.	.	(>8dd\	8ff#\	.	8fff#\J	.
.	.	.	.	16f#\JJ	.	16dd\JJ	.	16ff#\JJ	.	.	.	.	.	.	.	.	.	.	.
8A\	.	8A\	.	16e\LL	.	16cc#\LL	.	16ee\LL	.	.	.	4e/	4b\	.	8cc#\	8ee\	.	8eee\L	.
.	.	.	.	16e\	.	16cc#\	.	16ee\	.	.	.	.	.	.	.	.	.	.	.
8E\J	.	8E\J	.	16a\	.	16cc#\	.	16aa\	.	.	.	.	.	.	8cc#\J)	8aa\J	.	8aaa\J	.
.	.	.	.	16a\JJ	.	16cc#\JJ	.	16aa\JJ	.	.	.	.	.	.	.	.	.	.	.
=110	=110	=110	=110	=110	=110	=110	=110	=110	=110	=110	=110	=110	=110	=110	=110	=110	=110	=110	=110
*	*	*	*	*	*	*	*	*	*	*	*	*rep	*rep	*	*	*	*	*	*
8G#\L	.	8G#\L	.	16g#\LL	.	16ee\LL	.	16gg#\LL	.	.	.	4e/	4b\	.	8ee\L	8gg#\L	.	8ggg#\L	.
.	.	.	.	16g#\	.	16ee\	.	16gg#\	.	.	.	.	.	.	.	.	.	.	.
8E\	.	8E\	.	16f#\	.	16dd\	.	16ff#\	.	.	.	.	.	.	8dd\	8ff#\J	.	8fff#\	.
.	.	.	.	16f#\JJ	.	16dd\JJ	.	16ff#\JJ	.	.	.	.	.	.	.	.	.	.	.
8G#\	.	8G#\	.	16e\LL	.	16cc#\LL	.	16ee\LL	.	.	.	4e/	4b\	.	8cc#\	8ee\L	.	8eee\	.
.	.	.	.	16e\	.	16cc#\	.	16ee\	.	.	.	.	.	.	.	.	.	.	.
8E\J	.	8E\J	.	16d\	.	16b\	.	16dd\	.	.	.	.	.	.	8dd\J	8ff#\J	.	8fff#\J	.
.	.	.	.	16d\JJ	.	16b\JJ	.	16dd\JJ	.	.	.	.	.	.	.	.	.	.	.
*	*	*	*	*	*	*	*	*	*	*	*	*Xrep	*Xrep	*	*	*	*	*	*
!	!	!	!	!	!	!	!	!	!	!	!	!LO:LB:g=original	!LO:LB:g=original	!	!	!LO:LB:g=original	!	!	!
=111	=111	=111	=111	=111	=111	=111	=111	=111	=111	=111	=111	=111	=111	=111	=111	=111	=111	=111	=111
*rep	*	*rep	*	*	*	*	*	*	*	*	*	*	*	*	*	*	*	*	*
!	!	!	!	!	!	!	!	!	!	!	!	!	!LO:TX:a:t=P:problem:brakujący takt w źródle	!	!	!LO:LB:g=original	!	!	!
8G#\L	.	8G#\L	.	16e\LL	.	16cc#\LL	.	16ee\LL	.	.	.	2ryy	2ryy	.	8cc#\L	8ee'>\L	.	8eee\L	.
.	.	.	.	16e\	.	16cc#\	.	16ee\	.	.	.	.	.	.	.	.	.	.	.
8E\	.	8E\	.	16d\	.	16b\	.	16dd\	.	.	.	.	.	.	8b\	8dd'>\J	.	8ddd\	.
.	.	.	.	16d\JJ	.	16b\JJ	.	16dd\JJ	.	.	.	.	.	.	.	.	.	.	.
8G#\	.	8G#\	.	16c#\LL	.	16a\LL	.	16cc#\LL	.	.	.	.	.	.	8a\	8cc#'>\L	.	8ccc#\	.
.	.	.	.	16c#\	.	16a\	.	16cc#\	.	.	.	.	.	.	.	.	.	.	.
8E\J	.	8E\J	.	16B\	.	16g#\	.	16b\	.	.	.	.	.	.	8g#\J	8b'>\J	.	8bb\J	.
.	.	.	.	16B\JJ	.	16g#\JJ	.	16b\JJ	.	.	.	.	.	.	.	.	.	.	.
*Xrep	*	*Xrep	*	*	*	*	*	*	*	*	*	*	*	*	*	*	*	*	*
=112	=112	=112	=112	=112	=112	=112	=112	=112	=112	=112	=112	=112	=112	=112	=112	=112	=112	=112	=112
4AA/	.	4AA/	.	8A/	.	4a/	.	4a/	.	.	.	4A/	4a\	.	4a\	4a\	.	4aa\	.
.	.	.	.	8r	.	.	.	.	.	.	.	.	.	.	.	.	.	.	.
8.r	.	8r	.	4A\ 4a	.	8r	.	8r	.	.	.	8.r	8.r	.	8.r	8.r	.	8.r	.
.	.	8A\	.	.	.	8A/ 8a	.	8a\ 8aa	.	.	.	.	.	.	.	.	.	.	.
16A\	.	.	.	.	.	.	.	.	.	.	.	16A/	16a\	.	16a\	16cc#\	.	16aa\	.
!	!	!	!	!LO:LB:g=original	!	!LO:LB:g=original	!	!	!	!	!	!	!	!	!	!	!	!	!
=113	=113	=113	=113	=113	=113	=113	=113	=113	=113	=113	=113	=113	=113	=113	=113	=113	=113	=113	=113
!	!	!	!	!	!	!	!	!	!	!LO:N:vis=2	!	!	!	!	!	!	!	!	!
4E\	.	4E\	.	4A\ 4e 4a	.	4A/ 4e 4ee	.	4a\ 4aa	.	1.r	.	4A/	4a\	.	4a\	4cc#\	.	4aa\	.
4C#\	.	4C#\	.	4A\ 4e 4cc#	.	4g#/ 4cc# 4ee	.	4a\ 4ccc#	.	.	.	4A/	4a\	.	4cc#\	4ee\	.	4ccc#\	.
!	!	!LO:LB:g=original	!	!	!	!	!	!	!	!	!	!	!	!	!LO:LB:g=original	!	!	!	!
=114	=114	=114	=114	=114	=114	=114	=114	=114	=114	=114	=114	=114	=114	=114	=114	=114	=114	=114	=114
4AA/	.	4AA/	.	4A\ 4e 4a	.	4A/ 4a 4cc#	.	4a\ 4aa	.	.	.	4A/	4a\	.	4a\	4cc#\	.	4aa\	.
8.r	.	8r	.	8.r	.	8r	.	8r	.	.	.	8.r	8.r	.	8.r	8.r	.	8.r	.
.	.	8AA/	.	.	.	8A/ 8a	.	8A/ 8a	.	.	.	.	.	.	.	.	.	.	.
16AA/	.	.	.	16A/	.	.	.	.	.	.	.	16A/	16a\	.	16A/	16a\	.	16aa\	.
!LO:LB:g=original	!	!	!	!	!	!	!	!	!	!	!	!	!	!	!	!	!	!LO:LB:g=original	!
=115	=115	=115	=115	=115	=115	=115	=115	=115	=115	=115	=115	=115	=115	=115	=115	=115	=115	=115	=115
*	*	*	*	*	*	*	*	*	*	*	*	*	*2\right	*	*	*	*	*	*
2AA;>/	.	2AA/	.	2A/	.	2A/ 2a	.	2A/ 2a	.	.	.	2A/	2a\	.	2A/	2a\	.	2aaT\	.
!	!	!	!	!	!	!	!	!	!	!LO:TX:b:t=P:problem:napis na pięciolinii pod ostatnim taktem	!	!	!	!	!LO:TX:b:t=P:problem:napis za końcową kreską taktową pod pięciolinią	!LO:TX:b:t=P:problem:napis pod końcową kreską taktową na pięciolinii	!	!	!
!	!	!	!	!	!	!	!	!	!	!LO:TX:b:i:t=Finis	!	!	!	!	!LO:TX:b:i:t=Fine	!LO:TX:b:i:t=Fine.	!	!	!
==	==	==	==	==	==	==	==	==	==	==	==	==	==	==	==	==	==	==	==
*-	*-	*-	*-	*-	*-	*-	*-	*-	*-	*-	*-	*-	*-	*-	*-	*-	*-	*-	*-
!!!system-decoration: [(s1,s2,s3)][(s4,s5)][(s6)][(s7,s8,s9,s10)]s11
!!!RDF**kern: > = above
!!!RDF**kern: < = below
!!!RDF**dynam: < = "cres", fontstyle = "italic"
!!!EED: Mateusz Mrugas
!!!EST: 2021-01-07
!!!ENC: Berenika Jozajtis
!!!END: 2020-06-22
